;Generated with Cura_SteamEngine 5.4.0
T0; left extruder
M82 ;absolute extrusion mode
;SV04 start
M140 S60; print bed temperature, heat while continue to conduct following code
M104 S240; nozzle temperature, heat while continue to conduct following code
M280 P0 S160;
G4 P100; pause 100ms
G28; home x, y, z
M420 S1; bed leveling
M190 S60; print bed temperature, wait until reach the temp
M109 S240; nozzle temperature, wait until reach the temp
G92 E0; reset extrusion count to 0; G92=set position, E=extrude, 0=set to zero

; test print of two segments of lines
G1 X10.1 Y20 Z0.28 F5000.0; fast move to position
G1 X10.1 Y200.0 Z0.28 F1500.0 E15; print the first segment
G1 X10.4 Y200.0 Z0.28 F5000.0; fast move to the second position
G1 X10.4 Y20 Z0.28 F1500.0 E30; print the second segment
G92 E0 ;Reset Extruder
G1 Z2.0 F3000;
G92 E0
G92 E0
G1 F2400 E-0.5

M107
M104 T1 S240
; M106 S255; start fan
M204 S500; set acceleration
M205 X16 Y16; set acceleration
G90 ; use absolute coordinates
M83 ; use relative distances for extrusion

G0 X172.602 Y121.229 Z16
M205 X8 Y8; tune down acceleration
G1 F2400 E0; not sure the purpose of this line
G1 F70
G1 X179 Y127.627 E9.11014
G1 X179 Y133.335 E5.74712
G1 X168.665 Y123 E14.71606
G1 X162.957 Y123 E5.74712
G1 X179 Y139.043 E22.84371
G1 X179 Y144.751 E5.74712
G1 X157.249 Y123 E30.97136
G1 X151.541 Y123 E5.74712
G1 X179 Y150.459 E39.09901
G1 X179 Y156.167 E5.74712
G1 X145.833 Y123 E47.22666
G1 X140.124 Y123 E5.74812
G1 X179 Y161.876 E55.35573
G1 X179 Y167.584 E5.74712
G1 X134.416 Y123 E63.48338
G1 X128.708 Y123 E5.74712
G1 X179 Y173.292 E71.61103
G1 X179 Y179 E5.74712
G1 X123 Y123 E79.73868
G1 X123 Y128.708 E5.74712
G1 X173.292 Y179 E71.61103
G1 X167.584 Y179 E5.74712
G1 X123 Y134.416 E63.48338
G1 X123 Y140.125 E5.74812
G1 X161.875 Y179 E55.35431
G1 X156.167 Y179 E5.74712
G1 X123 Y145.833 E47.22666
G1 X123 Y151.541 E5.74712
G1 X150.459 Y179 E39.09901
G1 X144.751 Y179 E5.74712
G1 X123 Y157.249 E30.97136
G1 X123 Y162.957 E5.74712
G1 X139.043 Y179 E22.84371
G1 X133.335 Y179 E5.74712
G1 X123 Y168.665 E14.71606
G1 X123 Y174.373 E5.74712
G1 X129.398 Y180.771 E9.11014

G92 E0.0
G1 F70
G1 X172.602 Y180.771 Z21 E43
G1 X179 Y174.373 E9.11014
G1 X179 Y168.665 E5.74712
G1 X168.665 Y179 E14.71606
G1 X162.957 Y179 E5.74712
G1 X179 Y162.957 E22.84371
G1 X179 Y157.249 E5.74712
G1 X157.249 Y179 E30.97136
G1 X151.541 Y179 E5.74712
G1 X179 Y151.541 E39.09901
G1 X179 Y145.833 E5.74712
G1 X145.833 Y179 E47.22666
G1 X140.124 Y179 E5.74812
G1 X179 Y140.124 E55.35573
G1 X179 Y134.416 E5.74712
G1 X134.416 Y179 E63.48338
G1 X128.708 Y179 E5.74712
G1 X179 Y128.708 E71.61103
G1 X179 Y123 E5.74712
G1 X123 Y179 E79.73868
G1 X123 Y173.292 E5.74712
G1 X173.292 Y123 E71.61103
G1 X167.584 Y123 E5.74712
G1 X123 Y167.584 E63.48338
G1 X123 Y161.875 E5.74812
G1 X161.875 Y123 E55.35431
G1 X156.167 Y123 E5.74712
G1 X123 Y156.167 E47.22666
G1 X123 Y150.459 E5.74712
G1 X150.459 Y123 E39.09901
G1 X144.751 Y123 E5.74712
G1 X123 Y144.751 E30.97136
G1 X123 Y139.043 E5.74712
G1 X139.043 Y123 E22.84371
G1 X133.335 Y123 E5.74712
G1 X123 Y133.335 E14.71606
G1 X123 Y127.627 E5.74712
G1 X129.398 Y121.229 E9.11014

G1 F70
G1 X180.771 Y129.398 Z26
G1 X174.373 Y123 E9.11014
G1 X168.665 Y123 E5.74712
G1 X179 Y133.335 E14.71606
G1 X179 Y139.043 E5.74712
G1 X162.957 Y123 E22.8437
G1 X157.249 Y123 E5.74712
G1 X179 Y144.751 E30.97135
G1 X179 Y150.459 E5.74712
G1 X151.541 Y123 E39.099
G1 X145.833 Y123 E5.74712
G1 X179 Y156.167 E47.22665
G1 X179 Y161.876 E5.74812
G1 X167.998 Y150.873 E15.66651
G1 X167.984 Y151.758 E.89118
G1 X167.932 Y152.528 E.77704
G1 X167.843 Y153.307 E.78944
G1 X167.717 Y154.094 E.80248
G1 X167.551 Y154.885 E.81377
G1 X167.285 Y155.868 E1.02533
G1 X179 Y167.584 E16.68176
G1 X179 Y173.292 E5.74712
G1 X165.528 Y159.82 E19.18285
G1 X165.229 Y160.303 E.57195
G1 X164.733 Y161.021 E.87864
G1 X164.198 Y161.716 E.88308
G1 X163.627 Y162.383 E.88404
G1 X163.021 Y163.021 E.88596
G1 X179 Y179 E22.75257
G1 X173.292 Y179 E5.74712
G1 X159.82 Y165.528 E19.18285
G1 X158.808 Y166.101 E1.17093
G1 X158.039 Y166.475 E.86098
G1 X157.258 Y166.807 E.85445
G1 X156.47 Y167.097 E.84542
G1 X155.868 Y167.285 E.63499
G1 X167.584 Y179 E16.68176
G1 X161.875 Y179 E5.74812
G1 X148.968 Y166.092 E18.37905
;WIPE_START
G1 F6240
G1 X149.936 Y167.06 E-.5
;WIPE_END
G1 X153.032 Y135.908
G1 F70
G1 X140.124 Y123 E18.37976
G1 X134.416 Y123 E5.74712
G1 X146.132 Y134.715 E16.68176
G1 X145.53 Y134.904 E.6353
G1 X144.742 Y135.193 E.84508
G1 X143.961 Y135.525 E.85445
G1 X143.192 Y135.899 E.86098
G1 X142.18 Y136.472 E1.17093
G1 X128.708 Y123 E19.18285
G1 X123 Y123 E5.74712
G1 X138.979 Y138.979 E22.75257
G1 X138.373 Y139.617 E.88596
G1 X137.802 Y140.284 E.88404
G1 X137.267 Y140.979 E.88308
G1 X136.771 Y141.697 E.87864
G1 X136.472 Y142.18 E.57195
G1 X123 Y128.708 E19.18285
G1 X123 Y134.416 E5.74712
G1 X134.715 Y146.132 E16.68176
G1 X134.449 Y147.115 E1.02533
G1 X134.283 Y147.906 E.81377
G1 X134.157 Y148.693 E.80248
G1 X134.068 Y149.472 E.78944
G1 X134.016 Y150.242 E.77704
G1 X134.002 Y151.127 E.89118
G1 X123 Y140.125 E15.6658
G1 X123 Y145.833 E5.74712
G1 X156.167 Y179 E47.22665
G1 X150.459 Y179 E5.74712
G1 X123 Y151.541 E39.099
G1 X123 Y157.249 E5.74712
G1 X144.751 Y179 E30.97135
G1 X139.043 Y179 E5.74712
G1 X123 Y162.957 E22.8437
G1 X123 Y168.665 E5.74712
G1 X133.335 Y179 E14.71606
G1 X127.627 Y179 E5.74712
G1 X121.229 Y172.602 E9.11014
G1 F6240
G1 X127.627 Y179 E-3.30605
G1 X129.526 Y179 E-.69395
;WIPE_END

T1
G1 X100 Y100 F7800
G1 F70
G1 X165.244 Y147.1 E70
G1 X158.599 Y140.455 E10.02502
G1 X158.113 Y140.12 E.62969
G1 X157.548 Y139.771 E.70845
G1 X156.97 Y139.453 E.70376
G1 X156.382 Y139.167 E.69753
G1 X155.785 Y138.913 E.69211
G1 X155.182 Y138.692 E.68511
G1 X154.577 Y138.502 E.67648
G1 X153.97 Y138.344 E.66911
G1 X153.365 Y138.218 E.65925
G1 X152.764 Y138.121 E.64943
G1 X152.168 Y138.053 E.63993
G1 X151.601 Y138.015 E.60622
G1 X150.399 Y138.015 E1.28227
G1 X150.129 Y138.033 E.28867
G1 X163.967 Y151.871 E20.87679
G1 X163.879 Y152.764 E.95725
G1 X163.782 Y153.365 E.64943
G1 X163.656 Y153.97 E.65925
G1 X163.498 Y154.577 E.66911
G1 X163.308 Y155.182 E.67648
G1 X163.087 Y155.785 E.68511
G1 X162.701 Y156.653 E1.0134
G1 X145.347 Y139.299 E26.18122
G1 X144.452 Y139.771 E1.07941
G1 X143.887 Y140.12 E.70845
G1 X143.338 Y140.499 E.71167
G1 X142.807 Y140.908 E.71502
G1 X142.296 Y141.345 E.71728
G1 X141.808 Y141.808 E.71761
G1 X160.192 Y160.192 E27.73514
G1 X159.704 Y160.655 E.71761
G1 X159.193 Y161.092 E.71728
G1 X158.662 Y161.501 E.71502
G1 X158.113 Y161.88 E.71167
G1 X157.548 Y162.23 E.70901
G1 X156.653 Y162.701 E1.07891
G1 X139.299 Y145.347 E26.18122
G1 X138.913 Y146.215 E1.0134
G1 X138.692 Y146.818 E.68511
G1 X138.502 Y147.423 E.67648
G1 X138.344 Y148.03 E.66911
G1 X138.218 Y148.635 E.65925
G1 X138.121 Y149.236 E.64943
G1 X138.033 Y150.129 E.95725
G1 X151.871 Y163.967 E20.87679
G1 X151 Y164 E.92983
G1 X150.421 Y163.987 E.61782
G1 X149.832 Y163.947 E.62978
G1 X149.236 Y163.879 E.63993
G1 X148.635 Y163.783 E.64926
G1 X148.03 Y163.656 E.65947
G1 X147.423 Y163.498 E.66911
G1 X146.818 Y163.308 E.67648
G1 X146.215 Y163.087 E.68511
G1 X145.618 Y162.833 E.69211
G1 X145.03 Y162.547 E.69753
G1 X144.452 Y162.23 E.70325
G1 X143.887 Y161.88 E.70901
G1 X143.401 Y161.545 E.62969
G1 X136.757 Y154.9 E10.02427
G1 X200 Y200 E60
G1 X210 Y210 E-2 F40 ; retract to prevent stringing

T0
G0 X172.602 Y121.229 Z31 F7800
M205 X8 Y8; tune down acceleration
G1 F2400 E0; not sure the purpose of this line
G1 F70
G1 X179 Y127.627 E9.11014
G1 X179 Y133.335 E5.74712
G1 X168.665 Y123 E14.71606
G1 X162.957 Y123 E5.74712
G1 X179 Y139.043 E22.84371
G1 X179 Y144.751 E5.74712
G1 X157.249 Y123 E30.97136
G1 X151.541 Y123 E5.74712
G1 X179 Y150.459 E39.09901
G1 X179 Y156.167 E5.74712
G1 X145.833 Y123 E47.22666
G1 X140.124 Y123 E5.74812
G1 X179 Y161.876 E55.35573
G1 X179 Y167.584 E5.74712
G1 X134.416 Y123 E63.48338
G1 X128.708 Y123 E5.74712
G1 X179 Y173.292 E71.61103
G1 X179 Y179 E5.74712
G1 X123 Y123 E79.73868
G1 X123 Y128.708 E5.74712
G1 X173.292 Y179 E71.61103
G1 X167.584 Y179 E5.74712
G1 X123 Y134.416 E63.48338
G1 X123 Y140.125 E5.74812
G1 X161.875 Y179 E55.35431
G1 X156.167 Y179 E5.74712
G1 X123 Y145.833 E47.22666
G1 X123 Y151.541 E5.74712
G1 X150.459 Y179 E39.09901
G1 X144.751 Y179 E5.74712
G1 X123 Y157.249 E30.97136
G1 X123 Y162.957 E5.74712
G1 X139.043 Y179 E22.84371
G1 X133.335 Y179 E5.74712
G1 X123 Y168.665 E14.71606
G1 X123 Y174.373 E5.74712
G1 X129.398 Y180.771 E9.11014

G92 E0.0
G1 F70
G1 X172.602 Y180.771 Z36 E43
G1 X179 Y174.373 E9.11014
G1 X179 Y168.665 E5.74712
G1 X168.665 Y179 E14.71606
G1 X162.957 Y179 E5.74712
G1 X179 Y162.957 E22.84371
G1 X179 Y157.249 E5.74712
G1 X157.249 Y179 E30.97136
G1 X151.541 Y179 E5.74712
G1 X179 Y151.541 E39.09901
G1 X179 Y145.833 E5.74712
G1 X145.833 Y179 E47.22666
G1 X140.124 Y179 E5.74812
G1 X179 Y140.124 E55.35573
G1 X179 Y134.416 E5.74712
G1 X134.416 Y179 E63.48338
G1 X128.708 Y179 E5.74712
G1 X179 Y128.708 E71.61103
G1 X179 Y123 E5.74712
G1 X123 Y179 E79.73868
G1 X123 Y173.292 E5.74712
G1 X173.292 Y123 E71.61103
G1 X167.584 Y123 E5.74712
G1 X123 Y167.584 E63.48338
G1 X123 Y161.875 E5.74812
G1 X161.875 Y123 E55.35431
G1 X156.167 Y123 E5.74712
G1 X123 Y156.167 E47.22666
G1 X123 Y150.459 E5.74712
G1 X150.459 Y123 E39.09901
G1 X144.751 Y123 E5.74712
G1 X123 Y144.751 E30.97136
G1 X123 Y139.043 E5.74712
G1 X139.043 Y123 E22.84371
G1 X133.335 Y123 E5.74712
G1 X123 Y133.335 E14.71606
G1 X123 Y127.627 E5.74712
G1 X129.398 Y121.229 E9.11014


;SV04 end
M107; turn off fan
G91 ;Relative positioning
G1 E-2 F2700 ;Retract a bit
G1 E-2 Z0.2 F2400 ;Retract and raise Z
G1 X0 Y240 F3000 ;Wipe out
G1 Z10 ;Raise Z more
G90 ;Absolute positionning
G1 X0 Y302 ;Present print
M106 S0 ;Turn-off fan
M104 S0 ;Turn-off hotend
M140 S0 ;Turn-off bed
M84 X Y E ;Disable all steppers but Z
M82 ;absolute extrusion mode
M104 S0