;Generated with Cura_SteamEngine 5.4.0
T0; left extruder
M82 ;absolute extrusion mode
;SV04 start
M140 S60; print bed temperature, heat while continue to conduct following code
M104 S240; nozzle temperature, heat while continue to conduct following code
M280 P0 S160;
G4 P100; pause 100ms
G28; home x, y, z
M420 S1; bed leveling
M190 S60; print bed temperature, wait until reach the temp
M109 S240; nozzle temperature, wait until reach the temp
G92 E0; reset extrusion count to 0; G92=set position, E=extrude, 0=set to zero

; test print of two segments of lines
G1 X10.1 Y20 Z0.28 F5000.0; fast move to position
G1 X10.1 Y200.0 Z0.28 F1500.0 E15; print the first segment
G1 X10.4 Y200.0 Z0.28 F5000.0; fast move to the second position
G1 X10.4 Y20 Z0.28 F1500.0 E30; print the second segment
G92 E0 ;Reset Extruder
G1 Z2.0 F3000;
G92 E0
G92 E0
G1 F2400 E-0.5

M107
M104 T1 S240
; M106 S255; start fan
M204 S500; set acceleration
M205 X16 Y16; set acceleration


G0 X141.599 Y50.229 Z16 ; move to the starting position
M205 X8 Y8; tune down acceleration
G1 F2400 E0; not sure the purpose of this line
G1 F70
G1 X148 Y56.63 E9.11833
G1 X148 Y62.341 E14.87094
G1 X137.659 Y52 E29.60187
G1 X131.948 Y52 E35.35448
G1 X148 Y68.052 E58.22082
G1 X148 Y73.762 E63.97242
G1 X126.238 Y52 E94.97275
G1 X120.527 Y52 E100.72536
G1 X148 Y79.473 E139.8611
G1 X148 Y85.183 E145.6127
G1 X114.817 Y52 E192.88243
G1 X109.106 Y52 E198.63504
G1 X148 Y90.894 E254.04019
G1 X148 Y96.605 E259.7928
G1 X103.395 Y52 E323.33336
G1 X97.685 Y52 E329.08496
G1 X118.685 Y73 E358.99981
G1 X112.974 Y73 E364.75242
G1 X91.974 Y52 E394.66727
G1 X86.264 Y52 E400.41887
G1 X107.264 Y73 E430.33372
G1 X101.553 Y73 E436.08633
G1 X80.553 Y52 E466.00118
G1 X74.842 Y52 E471.75379
G1 X95.842 Y73 E501.66864
G1 X90.132 Y73 E507.42024
G1 X69.132 Y52 E537.33509
G1 X63.421 Y52 E543.0877
G1 X84.421 Y73 E573.00255
G1 X78.711 Y73 E578.75415
G1 X57.711 Y52 E608.669
G1 X52 Y52 E614.42161
G1 X73 Y73 E644.33646
G1 X73 Y78.711 E650.08907
G1 X52 Y57.711 E680.00392
G1 X52 Y63.421 E685.75552
G1 X73 Y84.421 E715.67037
G1 X73 Y90.132 E721.42298
G1 X52 Y69.132 E751.33783
G1 X52 Y74.842 E757.08943
G1 X73 Y95.842 E787.00428
G1 X73 Y101.553 E792.75689
G1 X52 Y80.553 E822.67174
G1 X52 Y86.264 E828.42435
G1 X73 Y107.264 E858.3392
G1 X73 Y112.974 E864.0908
G1 X52 Y91.974 E894.00565
G1 X52 Y97.685 E899.75826
G1 X74.771 Y120.456 E932.19593
G1 E930.19593 F2400
G92 E0
G1 Z100 F3000; fast move up a lot
G1 X125.229 Y79.544 Z16 F7800
G1 E2 F2400
G1 F70
G1 X148 Y102.315 E34.43767
G1 X148 Y108.026 E40.19028
G1 X127 Y87.026 E70.10513
G1 X127 Y92.736 E75.85673
G1 X148 Y113.736 E105.77158
G1 X148 Y119.447 E111.52419
G1 X127 Y98.447 E141.43904
G1 X127 Y104.158 E147.19165
G1 X148 Y125.158 E177.1065
G1 X148 Y130.868 E182.8581
G1 X127 Y109.868 E212.77295
G1 X127 Y115.579 E218.52556
G1 X148 Y136.579 E248.44041
G1 X148 Y142.289 E254.19201
G1 X127 Y121.289 E284.10686
G1 X127 Y127 E289.85947
G1 X148 Y148 E319.77432
G1 X142.289 Y148 E325.52693
G1 X121.289 Y127 E355.44178
G1 X115.579 Y127 E361.19338
G1 X136.579 Y148 E391.10823
G1 X130.868 Y148 E396.86084
G1 X109.868 Y127 E426.77569
G1 X104.158 Y127 E432.52729
G1 X125.158 Y148 E462.44214
G1 X119.447 Y148 E468.19475
G1 X98.447 Y127 E498.1096
G1 X92.736 Y127 E503.86221
G1 X113.736 Y148 E533.77706
G1 X108.026 Y148 E539.52866
G1 X87.026 Y127 E569.44351
G1 X81.315 Y127 E575.19612
G1 X102.315 Y148 E605.11097
G1 X96.605 Y148 E610.86257
G1 X52 Y103.396 E674.40242
G1 X52 Y109.106 E680.15402
G1 X90.894 Y148 E735.55917
G1 X85.183 Y148 E741.31178
G1 X52 Y114.817 E788.58151
G1 X52 Y120.527 E794.33311
G1 X79.473 Y148 E833.46885
G1 X73.762 Y148 E839.22146
G1 X52 Y126.238 E870.22179
G1 X52 Y131.949 E875.9744
G1 X68.051 Y148 E898.83931
G1 X62.341 Y148 E904.59091
G1 X52 Y137.659 E919.32184
G1 X52 Y143.37 E925.07445
G1 X58.401 Y149.771 E934.19278
G1 E932.19278 F2400
G92 E0
G1 X58.401 Y149.771 F7800
G92 E0
G1 Z100 F3000; fast move up a lot
G1 E2 F2400; supplement the previous retracted extrusion

; tool change
T1
G92 E0
M105
M109 S260
M104 T0 S0; turn off the left extruder
G0 X116.352 Y75.229 Z16; move to the starting position
M205 X8 Y8; tune down acceleration
G1 F2400 E0; not sure the purpose of this line
G1 F90
G1 X123 Y81.877 E11.74244
G1 X123 Y87.751 E17.82933
G1 X112.249 Y77 E33.58459
G1 X106.374 Y77 E39.67252
G1 X123 Y93.626 E64.03741
G1 X123 Y99.501 E70.12534
G1 X100.499 Y77 E103.09986
G1 X94.624 Y77 E109.18779
G1 X123 Y105.376 E150.77195
G1 X123 Y111.251 E156.85988
G1 X88.749 Y77 E207.05367
G1 X82.875 Y77 E213.14056
G1 X123 Y117.125 E271.94252
G1 X123 Y123 E278.03045
G1 X77 Y77 E345.44204
G1 X77 Y82.875 E351.52997
G1 X117.125 Y123 E410.33193
G1 X111.25 Y123 E416.41986
G1 X77 Y88.75 E466.61218
G1 X77 Y94.624 E472.69907
G1 X105.376 Y123 E514.28323
G1 X99.501 Y123 E520.37116
G1 X77 Y100.499 E553.34568
G1 X77 Y106.374 E559.43361
G1 X93.626 Y123 E583.7985
G1 X87.751 Y123 E589.88643
G1 X77 Y112.249 E605.64169
G1 X77 Y118.124 E611.72962
G1 X83.648 Y124.771 E621.47133

;SV04 end
M107; turn off fan
G91 ;Relative positioning
G1 E-2 F2700 ;Retract a bit
G1 E-2 Z0.2 F2400 ;Retract and raise Z
G1 X0 Y240 F3000 ;Wipe out
G1 Z10 ;Raise Z more
G90 ;Absolute positionning
G1 X0 Y302 ;Present print
M106 S0 ;Turn-off fan
M104 S0 ;Turn-off hotend
M140 S0 ;Turn-off bed
M84 X Y E ;Disable all steppers but Z
M82 ;absolute extrusion mode
M104 S0