
;Generated with Cura_SteamEngine 5.4.0
T0; left extruder
M82 ;absolute extrusion mode
;SV04 start
M140 S110; print bed temperature, heat while continue to conduct following code
M104 S260; nozzle temperature, heat while continue to conduct following code
M280 P0 S160;
G4 P100; pause 100ms
G28; home x, y, z
M420 S1; bed leveling
M190 S110; print bed temperature, wait until reach the temp
M109 S260; nozzle temperature, wait until reach the temp
G92 E0; reset extrusion count to 0; G92=set position, E=extrude, 0=set to zero

; test print of two segments of lines
G1 X10.1 Y20 Z0.28 F5000.0; fast move to position
G1 X10.1 Y200.0 Z0.28 F1500.0 E15; print the first segment
G1 X10.4 Y200.0 Z0.28 F5000.0; fast move to the second position
G1 X10.4 Y20 Z0.28 F1500.0 E30; print the second segment
G92 E0 ;Reset Extruder
G1 Z2.0 F3000;
G92 E0
G92 E0
G1 F2400 E-0.5

; M106 S255; start fan
M204 S500; set acceleration
M205 X16 Y16; set acceleration
    

G0 F2880 X120.99999809265137 Y121 Z12.100000005215406; move to start point
M205 X8 Y8; tune down acceleration
G1 F2400 E0; not sure the purpose of this line
G1 X121.0000 Y125.0000 Z12.1000 E4.0000 F150
G1 X121.0000 Y129.0000 Z12.1000 E8.0000 F150
G1 X121.0000 Y133.0000 Z12.1000 E12.0000 F150
G1 X121.0000 Y137.0000 Z12.1000 E16.0000 F150
G1 X121.0000 Y141.0000 Z12.1000 E20.0000 F150
G1 X121.0000 Y145.0000 Z12.1000 E24.0000 F150
G1 X121.0000 Y149.0000 Z12.1000 E28.0000 F150
G1 X121.0000 Y153.0000 Z12.1000 E32.0000 F150
G1 X121.0000 Y157.0000 Z12.1000 E36.0000 F150
G1 X121.0000 Y161.0000 Z12.1000 E40.0000 F150
G1 X121.0000 Y165.0000 Z12.1000 E44.0000 F150
G1 X121.0000 Y169.0000 Z12.1000 E48.0000 F150
G1 X121.0000 Y173.0000 Z12.1000 E52.0000 F150
G1 X121.0000 Y177.0000 Z12.1000 E56.0000 F150
G1 X121.0000 Y181.0000 Z12.1000 E60.0000 F150
G1 X125.0000 Y181.0000 Z12.1000 E64.0000 F150
G1 X125.0000 Y177.0000 Z12.1000 E68.0000 F150
G1 X125.0000 Y173.0000 Z12.1000 E72.0000 F150
G1 X125.0000 Y169.0000 Z12.1000 E76.0000 F150
G1 X125.0000 Y165.0000 Z12.1000 E80.0000 F150
G1 X125.0000 Y161.0000 Z12.1000 E84.0000 F150
G1 X125.0000 Y157.0000 Z12.1000 E88.0000 F150
G1 X125.0000 Y153.0000 Z12.1000 E92.0000 F150
G1 X125.0000 Y149.0000 Z12.1000 E96.0000 F150
G1 X125.0000 Y145.0000 Z12.1000 E100.0000 F150
G1 X125.0000 Y141.0000 Z12.1000 E104.0000 F150
G1 X125.0000 Y137.0000 Z12.1000 E108.0000 F150
G1 X125.0000 Y133.0000 Z12.1000 E112.0000 F150
G1 X125.0000 Y129.0000 Z12.1000 E116.0000 F150
G1 X125.0000 Y125.0000 Z12.1000 E120.0000 F150
G1 X125.0000 Y121.0000 Z12.1000 E124.0000 F150
G1 X129.0000 Y121.0000 Z12.1000 E128.0000 F150
G1 X129.0000 Y125.0000 Z12.1000 E132.0000 F150
G1 X129.0000 Y129.0000 Z12.1000 E136.0000 F150
G1 X129.0000 Y133.0000 Z12.1000 E140.0000 F150
G1 X129.0000 Y137.0000 Z12.1000 E144.0000 F150
G1 X129.0000 Y141.0000 Z12.1000 E148.0000 F150
G1 X129.0000 Y145.0000 Z12.1000 E152.0000 F150
G1 X129.0000 Y149.0000 Z12.1000 E156.0000 F150
G1 X129.0000 Y153.0000 Z12.1000 E160.0000 F150
G1 X129.0000 Y157.0000 Z12.1000 E164.0000 F150
G1 X129.0000 Y161.0000 Z12.1000 E168.0000 F150
G1 X129.0000 Y165.0000 Z12.1000 E172.0000 F150
G1 X129.0000 Y169.0000 Z12.1000 E176.0000 F150
G1 X129.0000 Y173.0000 Z12.1000 E180.0000 F150
G1 X129.0000 Y177.0000 Z12.1000 E184.0000 F150
G1 X129.0000 Y181.0000 Z12.1000 E188.0000 F150
G1 X133.0000 Y181.0000 Z12.1000 E192.0000 F150
G1 X133.0000 Y177.0000 Z12.1000 E196.0000 F150
G1 X133.0000 Y173.0000 Z12.1000 E200.0000 F150
G1 X133.0000 Y169.0000 Z12.1000 E204.0000 F150
G1 X133.0000 Y165.0000 Z12.1000 E208.0000 F150
G1 X133.0000 Y161.0000 Z12.1000 E212.0000 F150
G1 X133.0000 Y157.0000 Z12.1000 E216.0000 F150
G1 X133.0000 Y153.0000 Z12.1000 E220.0000 F150
G1 X133.0000 Y149.0000 Z12.1000 E224.0000 F150
G1 X133.0000 Y145.0000 Z12.1000 E228.0000 F150
G1 X133.0000 Y141.0000 Z12.1000 E232.0000 F150
G1 X133.0000 Y137.0000 Z12.1000 E236.0000 F150
G1 X133.0000 Y133.0000 Z12.1000 E240.0000 F150
G1 X133.0000 Y129.0000 Z12.1000 E244.0000 F150
G1 X133.0000 Y125.0000 Z12.1000 E248.0000 F150
G1 X133.0000 Y121.0000 Z12.1000 E252.0000 F150
G1 X137.0000 Y121.0000 Z12.1000 E256.0000 F150
G1 X137.0000 Y125.0000 Z12.1000 E260.0000 F150
G1 X137.0000 Y129.0000 Z12.1000 E264.0000 F150
G1 X137.0000 Y133.0000 Z12.1000 E268.0000 F150
G1 X137.0000 Y137.0000 Z12.1000 E272.0000 F150
G1 X137.0000 Y141.0000 Z12.1000 E276.0000 F150
G1 X137.0000 Y145.0000 Z12.1000 E280.0000 F150
G1 X137.0000 Y149.0000 Z12.1000 E284.0000 F150
G1 X137.0000 Y153.0000 Z12.1000 E288.0000 F150
G1 X137.0000 Y157.0000 Z12.1000 E292.0000 F150
G1 X137.0000 Y161.0000 Z12.1000 E296.0000 F150
G1 X137.0000 Y165.0000 Z12.1000 E300.0000 F150
G1 X137.0000 Y169.0000 Z12.1000 E304.0000 F150
G1 X137.0000 Y173.0000 Z12.1000 E308.0000 F150
G1 X137.0000 Y177.0000 Z12.1000 E312.0000 F150
G1 X137.0000 Y181.0000 Z12.1000 E316.0000 F150
G1 X141.0000 Y181.0000 Z12.1000 E320.0000 F150
G1 X141.0000 Y177.0000 Z12.1000 E324.0000 F150
G1 X141.0000 Y173.0000 Z12.1000 E328.0000 F150
G1 X141.0000 Y169.0000 Z12.1000 E332.0000 F150
G1 X141.0000 Y165.0000 Z12.1000 E336.0000 F150
G1 X141.0000 Y161.0000 Z12.1000 E340.0000 F150
G1 X141.0000 Y157.0000 Z12.1000 E344.0000 F150
G1 X141.0000 Y153.0000 Z12.1000 E348.0000 F150
G1 X141.0000 Y149.0000 Z12.1000 E352.0000 F150
G1 X141.0000 Y145.0000 Z12.1000 E356.0000 F150
G1 X141.0000 Y141.0000 Z12.1000 E360.0000 F150
G1 X141.0000 Y137.0000 Z12.1000 E364.0000 F150
G1 X141.0000 Y133.0000 Z12.1000 E368.0000 F150
G1 X141.0000 Y129.0000 Z12.1000 E372.0000 F150
G1 X141.0000 Y125.0000 Z12.1000 E376.0000 F150
G1 X141.0000 Y121.0000 Z12.1000 E380.0000 F150
G1 X145.0000 Y121.0000 Z12.1000 E384.0000 F150
G1 X145.0000 Y125.0000 Z12.1000 E388.0000 F150
G1 X145.0000 Y129.0000 Z12.1000 E392.0000 F150
G1 X145.0000 Y133.0000 Z12.1000 E396.0000 F150
G1 X145.0000 Y137.0000 Z12.1000 E400.0000 F150
G1 X145.0000 Y141.0000 Z12.1000 E404.0000 F150
G1 X145.0000 Y145.0000 Z12.1000 E408.0000 F150
G1 X145.0000 Y149.0000 Z12.1000 E412.0000 F150
G1 X145.0000 Y153.0000 Z12.1000 E416.0000 F150
G1 X145.0000 Y157.0000 Z12.1000 E420.0000 F150
G1 X145.0000 Y161.0000 Z12.1000 E424.0000 F150
G1 X145.0000 Y165.0000 Z12.1000 E428.0000 F150
G1 X145.0000 Y169.0000 Z12.1000 E432.0000 F150
G1 X145.0000 Y173.0000 Z12.1000 E436.0000 F150
G1 X145.0000 Y177.0000 Z12.1000 E440.0000 F150
G1 X145.0000 Y181.0000 Z12.1000 E444.0000 F150
G1 X149.0000 Y181.0000 Z12.1000 E448.0000 F150
G1 X149.0000 Y177.0000 Z12.1000 E452.0000 F150
G1 X149.0000 Y173.0000 Z12.1000 E456.0000 F150
G1 X149.0000 Y169.0000 Z12.1000 E460.0000 F150
G1 X149.0000 Y165.0000 Z12.1000 E464.0000 F150
G1 X149.0000 Y161.0000 Z12.1000 E468.0000 F150
G1 X149.0000 Y157.0000 Z12.1000 E472.0000 F150
G1 X149.0000 Y153.0000 Z12.1000 E476.0000 F150
G1 X149.0000 Y149.0000 Z12.1000 E480.0000 F150
G1 X149.0000 Y145.0000 Z12.1000 E484.0000 F150
G1 X149.0000 Y141.0000 Z12.1000 E488.0000 F150
G1 X149.0000 Y137.0000 Z12.1000 E492.0000 F150
G1 X149.0000 Y133.0000 Z12.1000 E496.0000 F150
G1 X149.0000 Y129.0000 Z12.1000 E500.0000 F150
G1 X149.0000 Y125.0000 Z12.1000 E504.0000 F150
G1 X149.0000 Y121.0000 Z12.1000 E508.0000 F150
G1 X153.0000 Y121.0000 Z12.1000 E512.0000 F150
G1 X153.0000 Y125.0000 Z12.1000 E516.0000 F150
G1 X153.0000 Y129.0000 Z12.1000 E520.0000 F150
G1 X153.0000 Y133.0000 Z12.1000 E524.0000 F150
G1 X153.0000 Y137.0000 Z12.1000 E528.0000 F150
G1 X153.0000 Y141.0000 Z12.1000 E532.0000 F150
G1 X153.0000 Y145.0000 Z12.1000 E536.0000 F150
G1 X153.0000 Y149.0000 Z12.1000 E540.0000 F150
G1 X153.0000 Y153.0000 Z12.1000 E544.0000 F150
G1 X153.0000 Y157.0000 Z12.1000 E548.0000 F150
G1 X153.0000 Y161.0000 Z12.1000 E552.0000 F150
G1 X153.0000 Y165.0000 Z12.1000 E556.0000 F150
G1 X153.0000 Y169.0000 Z12.1000 E560.0000 F150
G1 X153.0000 Y173.0000 Z12.1000 E564.0000 F150
G1 X153.0000 Y177.0000 Z12.1000 E568.0000 F150
G1 X153.0000 Y181.0000 Z12.1000 E572.0000 F150
G1 X157.0000 Y181.0000 Z12.1000 E576.0000 F150
G1 X157.0000 Y177.0000 Z12.1000 E580.0000 F150
G1 X157.0000 Y173.0000 Z12.1000 E584.0000 F150
G1 X157.0000 Y169.0000 Z12.1000 E588.0000 F150
G1 X157.0000 Y165.0000 Z12.1000 E592.0000 F150
G1 X157.0000 Y161.0000 Z12.1000 E596.0000 F150
G1 X157.0000 Y157.0000 Z12.1000 E600.0000 F150
G1 X157.0000 Y153.0000 Z12.1000 E604.0000 F150
G1 X157.0000 Y149.0000 Z12.1000 E608.0000 F150
G1 X157.0000 Y145.0000 Z12.1000 E612.0000 F150
G1 X157.0000 Y141.0000 Z12.1000 E616.0000 F150
G1 X157.0000 Y137.0000 Z12.1000 E620.0000 F150
G1 X157.0000 Y133.0000 Z12.1000 E624.0000 F150
G1 X157.0000 Y129.0000 Z12.1000 E628.0000 F150
G1 X157.0000 Y125.0000 Z12.1000 E632.0000 F150
G1 X157.0000 Y121.0000 Z12.1000 E636.0000 F150
G1 X161.0000 Y121.0000 Z12.1000 E640.0000 F150
G1 X161.0000 Y125.0000 Z12.1000 E644.0000 F150
G1 X161.0000 Y129.0000 Z12.1000 E648.0000 F150
G1 X161.0000 Y133.0000 Z12.1000 E652.0000 F150
G1 X161.0000 Y137.0000 Z12.1000 E656.0000 F150
G1 X161.0000 Y141.0000 Z12.1000 E660.0000 F150
G1 X161.0000 Y145.0000 Z12.1000 E664.0000 F150
G1 X161.0000 Y149.0000 Z12.1000 E668.0000 F150
G1 X161.0000 Y153.0000 Z12.1000 E672.0000 F150
G1 X161.0000 Y157.0000 Z12.1000 E676.0000 F150
G1 X161.0000 Y161.0000 Z12.1000 E680.0000 F150
G1 X161.0000 Y165.0000 Z12.1000 E684.0000 F150
G1 X161.0000 Y169.0000 Z12.1000 E688.0000 F150
G1 X161.0000 Y173.0000 Z12.1000 E692.0000 F150
G1 X161.0000 Y177.0000 Z12.1000 E696.0000 F150
G1 X161.0000 Y181.0000 Z12.1000 E700.0000 F150
G1 X165.0000 Y181.0000 Z12.1000 E704.0000 F150
G1 X165.0000 Y177.0000 Z12.1000 E708.0000 F150
G1 X165.0000 Y173.0000 Z12.1000 E712.0000 F150
G1 X165.0000 Y169.0000 Z12.1000 E716.0000 F150
G1 X165.0000 Y165.0000 Z12.1000 E720.0000 F150
G1 X165.0000 Y161.0000 Z12.1000 E724.0000 F150
G1 X165.0000 Y157.0000 Z12.1000 E728.0000 F150
G1 X165.0000 Y153.0000 Z12.1000 E732.0000 F150
G1 X165.0000 Y149.0000 Z12.1000 E736.0000 F150
G1 X165.0000 Y145.0000 Z12.1000 E740.0000 F150
G1 X165.0000 Y141.0000 Z12.1000 E744.0000 F150
G1 X165.0000 Y137.0000 Z12.1000 E748.0000 F150
G1 X165.0000 Y133.0000 Z12.1000 E752.0000 F150
G1 X165.0000 Y129.0000 Z12.1000 E756.0000 F150
G1 X165.0000 Y125.0000 Z12.1000 E760.0000 F150
G1 X165.0000 Y121.0000 Z12.1000 E764.0000 F150
G1 X169.0000 Y121.0000 Z12.1000 E768.0000 F150
G1 X169.0000 Y125.0000 Z12.1000 E772.0000 F150
G1 X169.0000 Y129.0000 Z12.1000 E776.0000 F150
G1 X169.0000 Y133.0000 Z12.1000 E780.0000 F150
G1 X169.0000 Y137.0000 Z12.1000 E784.0000 F150
G1 X169.0000 Y141.0000 Z12.1000 E788.0000 F150
G1 X169.0000 Y145.0000 Z12.1000 E792.0000 F150
G1 X169.0000 Y149.0000 Z12.1000 E796.0000 F150
G1 X169.0000 Y153.0000 Z12.1000 E800.0000 F150
G1 X169.0000 Y157.0000 Z12.1000 E804.0000 F150
G1 X169.0000 Y161.0000 Z12.1000 E808.0000 F150
G1 X169.0000 Y165.0000 Z12.1000 E812.0000 F150
G1 X169.0000 Y169.0000 Z12.1000 E816.0000 F150
G1 X169.0000 Y173.0000 Z12.1000 E820.0000 F150
G1 X169.0000 Y177.0000 Z12.1000 E824.0000 F150
G1 X169.0000 Y181.0000 Z12.1000 E828.0000 F150
G1 X173.0000 Y181.0000 Z12.1000 E832.0000 F150
G1 X173.0000 Y177.0000 Z12.1000 E836.0000 F150
G1 X173.0000 Y173.0000 Z12.1000 E840.0000 F150
G1 X173.0000 Y169.0000 Z12.1000 E844.0000 F150
G1 X173.0000 Y165.0000 Z12.1000 E848.0000 F150
G1 X173.0000 Y161.0000 Z12.1000 E852.0000 F150
G1 X173.0000 Y157.0000 Z12.1000 E856.0000 F150
G1 X173.0000 Y153.0000 Z12.1000 E860.0000 F150
G1 X173.0000 Y149.0000 Z12.1000 E864.0000 F150
G1 X173.0000 Y145.0000 Z12.1000 E868.0000 F150
G1 X173.0000 Y141.0000 Z12.1000 E872.0000 F150
G1 X173.0000 Y137.0000 Z12.1000 E876.0000 F150
G1 X173.0000 Y133.0000 Z12.1000 E880.0000 F150
G1 X173.0000 Y129.0000 Z12.1000 E884.0000 F150
G1 X173.0000 Y125.0000 Z12.1000 E888.0000 F150
G1 X173.0000 Y121.0000 Z12.1000 E892.0000 F150
G1 X177.0000 Y121.0000 Z12.1000 E896.0000 F150
G1 X177.0000 Y125.0000 Z12.1000 E900.0000 F150
G1 X177.0000 Y129.0000 Z12.1000 E904.0000 F150
G1 X177.0000 Y133.0000 Z12.1000 E908.0000 F150
G1 X177.0000 Y137.0000 Z12.1000 E912.0000 F150
G1 X177.0000 Y141.0000 Z12.1000 E916.0000 F150
G1 X177.0000 Y145.0000 Z12.1000 E920.0000 F150
G1 X177.0000 Y149.0000 Z12.1000 E924.0000 F150
G1 X177.0000 Y153.0000 Z12.1000 E928.0000 F150
G1 X177.0000 Y157.0000 Z12.1000 E932.0000 F150
G1 X177.0000 Y161.0000 Z12.1000 E936.0000 F150
G1 X177.0000 Y165.0000 Z12.1000 E940.0000 F150
G1 X177.0000 Y169.0000 Z12.1000 E944.0000 F150
G1 X177.0000 Y173.0000 Z12.1000 E948.0000 F150
G1 X177.0000 Y177.0000 Z12.1000 E952.0000 F150
G1 X177.0000 Y181.0000 Z12.1000 E956.0000 F150
G1 X181.0000 Y181.0000 Z12.1000 E960.0000 F150
G1 X181.0000 Y177.0000 Z12.1000 E964.0000 F150
G1 X181.0000 Y173.0000 Z12.1000 E968.0000 F150
G1 X181.0000 Y169.0000 Z12.1000 E972.0000 F150
G1 X181.0000 Y165.0000 Z12.1000 E976.0000 F150
G1 X181.0000 Y161.0000 Z12.1000 E980.0000 F150
G1 X181.0000 Y157.0000 Z12.1000 E984.0000 F150
G1 X181.0000 Y153.0000 Z12.1000 E988.0000 F150
G1 X181.0000 Y149.0000 Z12.1000 E992.0000 F150
G1 X181.0000 Y145.0000 Z12.1000 E996.0000 F150
G1 X181.0000 Y141.0000 Z12.1000 E1000.0000 F150
G1 X181.0000 Y137.0000 Z12.1000 E1004.0000 F150
G1 X181.0000 Y133.0000 Z12.1000 E1008.0000 F150
G1 X181.0000 Y129.0000 Z12.1000 E1012.0000 F150
G1 X181.0000 Y125.0000 Z12.1000 E1016.0000 F150
G1 X181.0000 Y121.0000 Z12.1000 E1020.0000 F150
G1 X181.0000 Y121.0000 Z17.1000 E1021.0000 F150
G1 X177.0000 Y121.0000 Z17.1000 E1025.0000 F150
G1 X173.0000 Y121.0000 Z17.1000 E1029.0000 F150
G1 X169.0000 Y121.0000 Z17.1000 E1033.0000 F150
G1 X165.0000 Y121.0000 Z17.1000 E1037.0000 F150
G1 X161.0000 Y121.0000 Z17.1000 E1041.0000 F150
G1 X157.0000 Y121.0000 Z17.1000 E1045.0000 F150
G1 X153.0000 Y121.0000 Z17.1000 E1049.0000 F150
G1 X149.0000 Y121.0000 Z17.1000 E1053.0000 F150
G1 X145.0000 Y121.0000 Z17.1000 E1057.0000 F150
G1 X141.0000 Y121.0000 Z17.1000 E1061.0000 F150
G1 X137.0000 Y121.0000 Z17.1000 E1065.0000 F150
G1 X133.0000 Y121.0000 Z17.1000 E1069.0000 F150
G1 X129.0000 Y121.0000 Z17.1000 E1073.0000 F150
G1 X125.0000 Y121.0000 Z17.1000 E1077.0000 F150
G1 X121.0000 Y121.0000 Z17.1000 E1081.0000 F150
G1 X121.0000 Y125.0000 Z17.1000 E1085.0000 F150
G1 X125.0000 Y125.0000 Z17.1000 E1089.0000 F150
G1 X129.0000 Y125.0000 Z17.1000 E1093.0000 F150
G1 X133.0000 Y125.0000 Z17.1000 E1097.0000 F150
G1 X137.0000 Y125.0000 Z17.1000 E1101.0000 F150
G1 X141.0000 Y125.0000 Z17.1000 E1105.0000 F150
G1 X145.0000 Y125.0000 Z17.1000 E1109.0000 F150
G1 X149.0000 Y125.0000 Z17.1000 E1113.0000 F150
G1 X153.0000 Y125.0000 Z17.1000 E1117.0000 F150
G1 X157.0000 Y125.0000 Z17.1000 E1121.0000 F150
G1 X161.0000 Y125.0000 Z17.1000 E1125.0000 F150
G1 X165.0000 Y125.0000 Z17.1000 E1129.0000 F150
G1 X169.0000 Y125.0000 Z17.1000 E1133.0000 F150
G1 X173.0000 Y125.0000 Z17.1000 E1137.0000 F150
G1 X177.0000 Y125.0000 Z17.1000 E1141.0000 F150
G1 X181.0000 Y125.0000 Z17.1000 E1145.0000 F150
G1 X181.0000 Y129.0000 Z17.1000 E1149.0000 F150
G1 X177.0000 Y129.0000 Z17.1000 E1153.0000 F150
G1 X173.0000 Y129.0000 Z17.1000 E1157.0000 F150
G1 X169.0000 Y129.0000 Z17.1000 E1161.0000 F150
G1 X165.0000 Y129.0000 Z17.1000 E1165.0000 F150
G1 X161.0000 Y129.0000 Z17.1000 E1169.0000 F150
G1 X157.0000 Y129.0000 Z17.1000 E1173.0000 F150
G1 X153.0000 Y129.0000 Z17.1000 E1177.0000 F150
G1 X149.0000 Y129.0000 Z17.1000 E1181.0000 F150
G1 X145.0000 Y129.0000 Z17.1000 E1185.0000 F150
G1 X141.0000 Y129.0000 Z17.1000 E1189.0000 F150
G1 X137.0000 Y129.0000 Z17.1000 E1193.0000 F150
G1 X133.0000 Y129.0000 Z17.1000 E1197.0000 F150
G1 X129.0000 Y129.0000 Z17.1000 E1201.0000 F150
G1 X125.0000 Y129.0000 Z17.1000 E1205.0000 F150
G1 X121.0000 Y129.0000 Z17.1000 E1209.0000 F150
G1 X121.0000 Y133.0000 Z17.1000 E1213.0000 F150
G1 X125.0000 Y133.0000 Z17.1000 E1217.0000 F150
G1 X129.0000 Y133.0000 Z17.1000 E1221.0000 F150
G1 X133.0000 Y133.0000 Z17.1000 E1225.0000 F150
G1 X137.0000 Y133.0000 Z17.1000 E1229.0000 F150
G1 X141.0000 Y133.0000 Z17.1000 E1233.0000 F150
G1 X145.0000 Y133.0000 Z17.1000 E1237.0000 F150
G1 X149.0000 Y133.0000 Z17.1000 E1241.0000 F150
G1 X153.0000 Y133.0000 Z17.1000 E1245.0000 F150
G1 X157.0000 Y133.0000 Z17.1000 E1249.0000 F150
G1 X161.0000 Y133.0000 Z17.1000 E1253.0000 F150
G1 X165.0000 Y133.0000 Z17.1000 E1257.0000 F150
