; PARAS
; zOffset 12.1mm (~12mm)
; deltaZ 5mm
; layerNum 3
; delta_d/sampleStep 4mm
; print area: 60mm x 60mm
; nozzle temp 260C
; bed temp 110C
; print speed 70mm/s
; extrusion rate 0.8

;Generated with Cura_SteamEngine 5.4.0
T0; left extruder
M82 ;absolute extrusion mode
;SV04 start
M140 S110; print bed temperature, heat while continue to conduct following code
M104 S260; nozzle temperature, heat while continue to conduct following code
M280 P0 S160;
G4 P100; pause 100ms
G28; home x, y, z
M420 S1; bed leveling
M190 S110; print bed temperature, wait until reach the temp
M109 S260; nozzle temperature, wait until reach the temp
G92 E0; reset extrusion count to 0; G92=set position, E=extrude, 0=set to zero

; test print of two segments of lines
G1 X10.1 Y20 Z0.28 F5000.0; fast move to position
G1 X10.1 Y200.0 Z0.28 F1500.0 E15; print the first segment
G1 X10.4 Y200.0 Z0.28 F5000.0; fast move to the second position
G1 X10.4 Y20 Z0.28 F1500.0 E30; print the second segment
G92 E0 ;Reset Extruder
G1 Z2.0 F3000;
G92 E0
G92 E0
G1 F2400 E-0.5

; M106 S255; start fan
M204 S500; set acceleration
M205 X16 Y16; set acceleration
    

G0 F2880 X120.99999809265137 Y121 Z12.100000005215406; move to start point
M205 X8 Y8; tune down acceleration
G1 F2400 E0; not sure the purpose of this line
G1 X121.0000 Y125.0000 Z12.1000 E3.2000 F70
G1 X121.0000 Y129.0000 Z12.1000 E6.4000 F70
G1 X121.0000 Y133.0000 Z12.1000 E9.6000 F70
G1 X121.0000 Y137.0000 Z12.1000 E12.8000 F70
G1 X121.0000 Y141.0000 Z12.1000 E16.0000 F70
G1 X121.0000 Y145.0000 Z12.1000 E19.2000 F70
G1 X121.0000 Y149.0000 Z12.1000 E22.4000 F70
G1 X121.0000 Y153.0000 Z12.1000 E25.6000 F70
G1 X121.0000 Y157.0000 Z12.1000 E28.8000 F70
G1 X121.0000 Y161.0000 Z12.1000 E32.0000 F70
G1 X121.0000 Y165.0000 Z12.1000 E35.2000 F70
G1 X121.0000 Y169.0000 Z12.1000 E38.4000 F70
G1 X121.0000 Y173.0000 Z12.1000 E41.6000 F70
G1 X121.0000 Y177.0000 Z12.1000 E44.8000 F70
G1 X121.0000 Y181.0000 Z12.1000 E48.0000 F70
G1 X125.0000 Y181.0000 Z12.1000 E51.2000 F70
G1 X125.0000 Y177.0000 Z12.1000 E54.4000 F70
G1 X125.0000 Y173.0000 Z12.1000 E57.6000 F70
G1 X125.0000 Y169.0000 Z12.1000 E60.8000 F70
G1 X125.0000 Y165.0000 Z12.1000 E64.0000 F70
G1 X125.0000 Y161.0000 Z12.1000 E67.2000 F70
G1 X125.0000 Y157.0000 Z12.1000 E70.4000 F70
G1 X125.0000 Y153.0000 Z12.1000 E73.6000 F70
G1 X125.0000 Y149.0000 Z12.1000 E76.8000 F70
G1 X125.0000 Y145.0000 Z12.1000 E80.0000 F70
G1 X125.0000 Y141.0000 Z12.1000 E83.2000 F70
G1 X125.0000 Y137.0000 Z12.1000 E86.4000 F70
G1 X125.0000 Y133.0000 Z12.1000 E89.6000 F70
G1 X125.0000 Y129.0000 Z12.1000 E92.8000 F70
G1 X125.0000 Y125.0000 Z12.1000 E96.0000 F70
G1 X125.0000 Y121.0000 Z12.1000 E99.2000 F70
G1 X129.0000 Y121.0000 Z12.1000 E102.4000 F70
G1 X129.0000 Y125.0000 Z12.1000 E105.6000 F70
G1 X129.0000 Y129.0000 Z12.1000 E108.8000 F70
G1 X129.0000 Y133.0000 Z12.1000 E112.0000 F70
G1 X129.0000 Y137.0000 Z12.1000 E115.2000 F70
G1 X129.0000 Y141.0000 Z12.1000 E118.4000 F70
G1 X129.0000 Y145.0000 Z12.1000 E121.6000 F70
G1 X129.0000 Y149.0000 Z12.1000 E124.8000 F70
G1 X129.0000 Y153.0000 Z12.1000 E128.0000 F70
G1 X129.0000 Y157.0000 Z12.1000 E131.2000 F70
G1 X129.0000 Y161.0000 Z12.1000 E134.4000 F70
G1 X129.0000 Y165.0000 Z12.1000 E137.6000 F70
G1 X129.0000 Y169.0000 Z12.1000 E140.8000 F70
G1 X129.0000 Y173.0000 Z12.1000 E144.0000 F70
G1 X129.0000 Y177.0000 Z12.1000 E147.2000 F70
G1 X129.0000 Y181.0000 Z12.1000 E150.4000 F70
G1 X133.0000 Y181.0000 Z12.1000 E153.6000 F70
G1 X133.0000 Y177.0000 Z12.1000 E156.8000 F70
G1 X133.0000 Y173.0000 Z12.1000 E160.0000 F70
G1 X133.0000 Y169.0000 Z12.1000 E163.2000 F70
G1 X133.0000 Y165.0000 Z12.1000 E166.4000 F70
G1 X133.0000 Y161.0000 Z12.1000 E169.6000 F70
G1 X133.0000 Y157.0000 Z12.1000 E172.8000 F70
G1 X133.0000 Y153.0000 Z12.1000 E176.0000 F70
G1 X133.0000 Y149.0000 Z12.1000 E179.2000 F70
G1 X133.0000 Y145.0000 Z12.1000 E182.4000 F70
G1 X133.0000 Y141.0000 Z12.1000 E185.6000 F70
G1 X133.0000 Y137.0000 Z12.1000 E188.8000 F70
G1 X133.0000 Y133.0000 Z12.1000 E192.0000 F70
G1 X133.0000 Y129.0000 Z12.1000 E195.2000 F70
G1 X133.0000 Y125.0000 Z12.1000 E198.4000 F70
G1 X133.0000 Y121.0000 Z12.1000 E201.6000 F70
G1 X137.0000 Y121.0000 Z12.1000 E204.8000 F70
G1 X137.0000 Y125.0000 Z12.1000 E208.0000 F70
G1 X137.0000 Y129.0000 Z12.1000 E211.2000 F70
G1 X137.0000 Y133.0000 Z12.1000 E214.4000 F70
G1 X137.0000 Y137.0000 Z12.1000 E217.6000 F70
G1 X137.0000 Y141.0000 Z12.1000 E220.8000 F70
G1 X137.0000 Y145.0000 Z12.1000 E224.0000 F70
G1 X137.0000 Y149.0000 Z12.1000 E227.2000 F70
G1 X137.0000 Y153.0000 Z12.1000 E230.4000 F70
G1 X137.0000 Y157.0000 Z12.1000 E233.6000 F70
G1 X137.0000 Y161.0000 Z12.1000 E236.8000 F70
G1 X137.0000 Y165.0000 Z12.1000 E240.0000 F70
G1 X137.0000 Y169.0000 Z12.1000 E243.2000 F70
G1 X137.0000 Y173.0000 Z12.1000 E246.4000 F70
G1 X137.0000 Y177.0000 Z12.1000 E249.6000 F70
G1 X137.0000 Y181.0000 Z12.1000 E252.8000 F70
G1 X141.0000 Y181.0000 Z12.1000 E256.0000 F70
G1 X141.0000 Y177.0000 Z12.1000 E259.2000 F70
G1 X141.0000 Y173.0000 Z12.1000 E262.4000 F70
G1 X141.0000 Y169.0000 Z12.1000 E265.6000 F70
G1 X141.0000 Y165.0000 Z12.1000 E268.8000 F70
G1 X141.0000 Y161.0000 Z12.1000 E272.0000 F70
G1 X141.0000 Y157.0000 Z12.1000 E275.2000 F70
G1 X141.0000 Y153.0000 Z12.1000 E278.4000 F70
G1 X141.0000 Y149.0000 Z12.1000 E281.6000 F70
G1 X141.0000 Y145.0000 Z12.1000 E284.8000 F70
G1 X141.0000 Y141.0000 Z12.1000 E288.0000 F70
G1 X141.0000 Y137.0000 Z12.1000 E291.2000 F70
G1 X141.0000 Y133.0000 Z12.1000 E294.4000 F70
G1 X141.0000 Y129.0000 Z12.1000 E297.6000 F70
G1 X141.0000 Y125.0000 Z12.1000 E300.8000 F70
G1 X141.0000 Y121.0000 Z12.1000 E304.0000 F70
G1 X145.0000 Y121.0000 Z12.1000 E307.2000 F70
G1 X145.0000 Y125.0000 Z12.1000 E310.4000 F70
G1 X145.0000 Y129.0000 Z12.1000 E313.6000 F70
G1 X145.0000 Y133.0000 Z12.1000 E316.8000 F70
G1 X145.0000 Y137.0000 Z12.1000 E320.0000 F70
G1 X145.0000 Y141.0000 Z12.1000 E323.2000 F70
G1 X145.0000 Y145.0000 Z12.1000 E326.4000 F70
G1 X145.0000 Y149.0000 Z12.1000 E329.6000 F70
G1 X145.0000 Y153.0000 Z12.1000 E332.8000 F70
G1 X145.0000 Y157.0000 Z12.1000 E336.0000 F70
G1 X145.0000 Y161.0000 Z12.1000 E339.2000 F70
G1 X145.0000 Y165.0000 Z12.1000 E342.4000 F70
G1 X145.0000 Y169.0000 Z12.1000 E345.6000 F70
G1 X145.0000 Y173.0000 Z12.1000 E348.8000 F70
G1 X145.0000 Y177.0000 Z12.1000 E352.0000 F70
G1 X145.0000 Y181.0000 Z12.1000 E355.2000 F70
G1 X149.0000 Y181.0000 Z12.1000 E358.4000 F70
G1 X149.0000 Y177.0000 Z12.1000 E361.6000 F70
G1 X149.0000 Y173.0000 Z12.1000 E364.8000 F70
G1 X149.0000 Y169.0000 Z12.1000 E368.0000 F70
G1 X149.0000 Y165.0000 Z12.1000 E371.2000 F70
G1 X149.0000 Y161.0000 Z12.1000 E374.4000 F70
G1 X149.0000 Y157.0000 Z12.1000 E377.6000 F70
G1 X149.0000 Y153.0000 Z12.1000 E380.8000 F70
G1 X149.0000 Y149.0000 Z12.1000 E384.0000 F70
G1 X149.0000 Y145.0000 Z12.1000 E387.2000 F70
G1 X149.0000 Y141.0000 Z12.1000 E390.4000 F70
G1 X149.0000 Y137.0000 Z12.1000 E393.6000 F70
G1 X149.0000 Y133.0000 Z12.1000 E396.8000 F70
G1 X149.0000 Y129.0000 Z12.1000 E400.0000 F70
G1 X149.0000 Y125.0000 Z12.1000 E403.2000 F70
G1 X149.0000 Y121.0000 Z12.1000 E406.4000 F70
G1 X153.0000 Y121.0000 Z12.1000 E409.6000 F70
G1 X153.0000 Y125.0000 Z12.1000 E412.8000 F70
G1 X153.0000 Y129.0000 Z12.1000 E416.0000 F70
G1 X153.0000 Y133.0000 Z12.1000 E419.2000 F70
G1 X153.0000 Y137.0000 Z12.1000 E422.4000 F70
G1 X153.0000 Y141.0000 Z12.1000 E425.6000 F70
G1 X153.0000 Y145.0000 Z12.1000 E428.8000 F70
G1 X153.0000 Y149.0000 Z12.1000 E432.0000 F70
G1 X153.0000 Y153.0000 Z12.1000 E435.2000 F70
G1 X153.0000 Y157.0000 Z12.1000 E438.4000 F70
G1 X153.0000 Y161.0000 Z12.1000 E441.6000 F70
G1 X153.0000 Y165.0000 Z12.1000 E444.8000 F70
G1 X153.0000 Y169.0000 Z12.1000 E448.0000 F70
G1 X153.0000 Y173.0000 Z12.1000 E451.2000 F70
G1 X153.0000 Y177.0000 Z12.1000 E454.4000 F70
G1 X153.0000 Y181.0000 Z12.1000 E457.6000 F70
G1 X157.0000 Y181.0000 Z12.1000 E460.8000 F70
G1 X157.0000 Y177.0000 Z12.1000 E464.0000 F70
G1 X157.0000 Y173.0000 Z12.1000 E467.2000 F70
G1 X157.0000 Y169.0000 Z12.1000 E470.4000 F70
G1 X157.0000 Y165.0000 Z12.1000 E473.6000 F70
G1 X157.0000 Y161.0000 Z12.1000 E476.8000 F70
G1 X157.0000 Y157.0000 Z12.1000 E480.0000 F70
G1 X157.0000 Y153.0000 Z12.1000 E483.2000 F70
G1 X157.0000 Y149.0000 Z12.1000 E486.4000 F70
G1 X157.0000 Y145.0000 Z12.1000 E489.6000 F70
G1 X157.0000 Y141.0000 Z12.1000 E492.8000 F70
G1 X157.0000 Y137.0000 Z12.1000 E496.0000 F70
G1 X157.0000 Y133.0000 Z12.1000 E499.2000 F70
G1 X157.0000 Y129.0000 Z12.1000 E502.4000 F70
G1 X157.0000 Y125.0000 Z12.1000 E505.6000 F70
G1 X157.0000 Y121.0000 Z12.1000 E508.8000 F70
G1 X161.0000 Y121.0000 Z12.1000 E512.0000 F70
G1 X161.0000 Y125.0000 Z12.1000 E515.2000 F70
G1 X161.0000 Y129.0000 Z12.1000 E518.4000 F70
G1 X161.0000 Y133.0000 Z12.1000 E521.6000 F70
G1 X161.0000 Y137.0000 Z12.1000 E524.8000 F70
G1 X161.0000 Y141.0000 Z12.1000 E528.0000 F70
G1 X161.0000 Y145.0000 Z12.1000 E531.2000 F70
G1 X161.0000 Y149.0000 Z12.1000 E534.4000 F70
G1 X161.0000 Y153.0000 Z12.1000 E537.6000 F70
G1 X161.0000 Y157.0000 Z12.1000 E540.8000 F70
G1 X161.0000 Y161.0000 Z12.1000 E544.0000 F70
G1 X161.0000 Y165.0000 Z12.1000 E547.2000 F70
G1 X161.0000 Y169.0000 Z12.1000 E550.4000 F70
G1 X161.0000 Y173.0000 Z12.1000 E553.6000 F70
G1 X161.0000 Y177.0000 Z12.1000 E556.8000 F70
G1 X161.0000 Y181.0000 Z12.1000 E560.0000 F70
G1 X165.0000 Y181.0000 Z12.1000 E563.2000 F70
G1 X165.0000 Y177.0000 Z12.1000 E566.4000 F70
G1 X165.0000 Y173.0000 Z12.1000 E569.6000 F70
G1 X165.0000 Y169.0000 Z12.1000 E572.8000 F70
G1 X165.0000 Y165.0000 Z12.1000 E576.0000 F70
G1 X165.0000 Y161.0000 Z12.1000 E579.2000 F70
G1 X165.0000 Y157.0000 Z12.1000 E582.4000 F70
G1 X165.0000 Y153.0000 Z12.1000 E585.6000 F70
G1 X165.0000 Y149.0000 Z12.1000 E588.8000 F70
G1 X165.0000 Y145.0000 Z12.1000 E592.0000 F70
G1 X165.0000 Y141.0000 Z12.1000 E595.2000 F70
G1 X165.0000 Y137.0000 Z12.1000 E598.4000 F70
G1 X165.0000 Y133.0000 Z12.1000 E601.6000 F70
G1 X165.0000 Y129.0000 Z12.1000 E604.8000 F70
G1 X165.0000 Y125.0000 Z12.1000 E608.0000 F70
G1 X165.0000 Y121.0000 Z12.1000 E611.2000 F70
G1 X169.0000 Y121.0000 Z12.1000 E614.4000 F70
G1 X169.0000 Y125.0000 Z12.1000 E617.6000 F70
G1 X169.0000 Y129.0000 Z12.1000 E620.8000 F70
G1 X169.0000 Y133.0000 Z12.1000 E624.0000 F70
G1 X169.0000 Y137.0000 Z12.1000 E627.2000 F70
G1 X169.0000 Y141.0000 Z12.1000 E630.4000 F70
G1 X169.0000 Y145.0000 Z12.1000 E633.6000 F70
G1 X169.0000 Y149.0000 Z12.1000 E636.8000 F70
G1 X169.0000 Y153.0000 Z12.1000 E640.0000 F70
G1 X169.0000 Y157.0000 Z12.1000 E643.2000 F70
G1 X169.0000 Y161.0000 Z12.1000 E646.4000 F70
G1 X169.0000 Y165.0000 Z12.1000 E649.6000 F70
G1 X169.0000 Y169.0000 Z12.1000 E652.8000 F70
G1 X169.0000 Y173.0000 Z12.1000 E656.0000 F70
G1 X169.0000 Y177.0000 Z12.1000 E659.2000 F70
G1 X169.0000 Y181.0000 Z12.1000 E662.4000 F70
G1 X173.0000 Y181.0000 Z12.1000 E665.6000 F70
G1 X173.0000 Y177.0000 Z12.1000 E668.8000 F70
G1 X173.0000 Y173.0000 Z12.1000 E672.0000 F70
G1 X173.0000 Y169.0000 Z12.1000 E675.2000 F70
G1 X173.0000 Y165.0000 Z12.1000 E678.4000 F70
G1 X173.0000 Y161.0000 Z12.1000 E681.6000 F70
G1 X173.0000 Y157.0000 Z12.1000 E684.8000 F70
G1 X173.0000 Y153.0000 Z12.1000 E688.0000 F70
G1 X173.0000 Y149.0000 Z12.1000 E691.2000 F70
G1 X173.0000 Y145.0000 Z12.1000 E694.4000 F70
G1 X173.0000 Y141.0000 Z12.1000 E697.6000 F70
G1 X173.0000 Y137.0000 Z12.1000 E700.8000 F70
G1 X173.0000 Y133.0000 Z12.1000 E704.0000 F70
G1 X173.0000 Y129.0000 Z12.1000 E707.2000 F70
G1 X173.0000 Y125.0000 Z12.1000 E710.4000 F70
G1 X173.0000 Y121.0000 Z12.1000 E713.6000 F70
G1 X177.0000 Y121.0000 Z12.1000 E716.8000 F70
G1 X177.0000 Y125.0000 Z12.1000 E720.0000 F70
G1 X177.0000 Y129.0000 Z12.1000 E723.2000 F70
G1 X177.0000 Y133.0000 Z12.1000 E726.4000 F70
G1 X177.0000 Y137.0000 Z12.1000 E729.6000 F70
G1 X177.0000 Y141.0000 Z12.1000 E732.8000 F70
G1 X177.0000 Y145.0000 Z12.1000 E736.0000 F70
G1 X177.0000 Y149.0000 Z12.1000 E739.2000 F70
G1 X177.0000 Y153.0000 Z12.1000 E742.4000 F70
G1 X177.0000 Y157.0000 Z12.1000 E745.6000 F70
G1 X177.0000 Y161.0000 Z12.1000 E748.8000 F70
G1 X177.0000 Y165.0000 Z12.1000 E752.0000 F70
G1 X177.0000 Y169.0000 Z12.1000 E755.2000 F70
G1 X177.0000 Y173.0000 Z12.1000 E758.4000 F70
G1 X177.0000 Y177.0000 Z12.1000 E761.6000 F70
G1 X177.0000 Y181.0000 Z12.1000 E764.8000 F70
G1 X181.0000 Y181.0000 Z12.1000 E768.0000 F70
G1 X181.0000 Y177.0000 Z12.1000 E771.2000 F70
G1 X181.0000 Y173.0000 Z12.1000 E774.4000 F70
G1 X181.0000 Y169.0000 Z12.1000 E777.6000 F70
G1 X181.0000 Y165.0000 Z12.1000 E780.8000 F70
G1 X181.0000 Y161.0000 Z12.1000 E784.0000 F70
G1 X181.0000 Y157.0000 Z12.1000 E787.2000 F70
G1 X181.0000 Y153.0000 Z12.1000 E790.4000 F70
G1 X181.0000 Y149.0000 Z12.1000 E793.6000 F70
G1 X181.0000 Y145.0000 Z12.1000 E796.8000 F70
G1 X181.0000 Y141.0000 Z12.1000 E800.0000 F70
G1 X181.0000 Y137.0000 Z12.1000 E803.2000 F70
G1 X181.0000 Y133.0000 Z12.1000 E806.4000 F70
G1 X181.0000 Y129.0000 Z12.1000 E809.6000 F70
G1 X181.0000 Y125.0000 Z12.1000 E812.8000 F70
G1 X181.0000 Y121.0000 Z12.1000 E816.0000 F70
G1 X181.0000 Y121.0000 Z17.1000 E817.0000 F200
G1 X177.0000 Y121.0000 Z17.1000 E820.2000 F70
G1 X173.0000 Y121.0000 Z17.1000 E823.4000 F70
G1 X169.0000 Y121.0000 Z17.1000 E826.6000 F70
G1 X165.0000 Y121.0000 Z17.1000 E829.8000 F70
G1 X161.0000 Y121.0000 Z17.1000 E833.0000 F70
G1 X157.0000 Y121.0000 Z17.1000 E836.2000 F70
G1 X153.0000 Y121.0000 Z17.1000 E839.4000 F70
G1 X149.0000 Y121.0000 Z17.1000 E842.6000 F70
G1 X145.0000 Y121.0000 Z17.1000 E845.8000 F70
G1 X141.0000 Y121.0000 Z17.1000 E849.0000 F70
G1 X137.0000 Y121.0000 Z17.1000 E852.2000 F70
G1 X133.0000 Y121.0000 Z17.1000 E855.4000 F70
G1 X129.0000 Y121.0000 Z17.1000 E858.6000 F70
G1 X125.0000 Y121.0000 Z17.1000 E861.8000 F70
G1 X121.0000 Y121.0000 Z17.1000 E865.0000 F70
G1 X121.0000 Y125.0000 Z17.1000 E868.2000 F70
G1 X125.0000 Y125.0000 Z17.1000 E871.4000 F70
G1 X129.0000 Y125.0000 Z17.1000 E874.6000 F70
G1 X133.0000 Y125.0000 Z17.1000 E877.8000 F70
G1 X137.0000 Y125.0000 Z17.1000 E881.0000 F70
G1 X141.0000 Y125.0000 Z17.1000 E884.2000 F70
G1 X145.0000 Y125.0000 Z17.1000 E887.4000 F70
G1 X149.0000 Y125.0000 Z17.1000 E890.6000 F70
G1 X153.0000 Y125.0000 Z17.1000 E893.8000 F70
G1 X157.0000 Y125.0000 Z17.1000 E897.0000 F70
G1 X161.0000 Y125.0000 Z17.1000 E900.2000 F70
G1 X165.0000 Y125.0000 Z17.1000 E903.4000 F70
G1 X169.0000 Y125.0000 Z17.1000 E906.6000 F70
G1 X173.0000 Y125.0000 Z17.1000 E909.8000 F70
G1 X177.0000 Y125.0000 Z17.1000 E913.0000 F70
G1 X181.0000 Y125.0000 Z17.1000 E916.2000 F70
G1 X181.0000 Y129.0000 Z17.1000 E919.4000 F70
G1 X177.0000 Y129.0000 Z17.1000 E922.6000 F70
G1 X173.0000 Y129.0000 Z17.1000 E925.8000 F70
G1 X169.0000 Y129.0000 Z17.1000 E929.0000 F70
G1 X165.0000 Y129.0000 Z17.1000 E932.2000 F70
G1 X161.0000 Y129.0000 Z17.1000 E935.4000 F70
G1 X157.0000 Y129.0000 Z17.1000 E938.6000 F70
G1 X153.0000 Y129.0000 Z17.1000 E941.8000 F70
G1 X149.0000 Y129.0000 Z17.1000 E945.0000 F70
G1 X145.0000 Y129.0000 Z17.1000 E948.2000 F70
G1 X141.0000 Y129.0000 Z17.1000 E951.4000 F70
G1 X137.0000 Y129.0000 Z17.1000 E954.6000 F70
G1 X133.0000 Y129.0000 Z17.1000 E957.8000 F70
G1 X129.0000 Y129.0000 Z17.1000 E961.0000 F70
G1 X125.0000 Y129.0000 Z17.1000 E964.2000 F70
G1 X121.0000 Y129.0000 Z17.1000 E967.4000 F70
G1 X121.0000 Y133.0000 Z17.1000 E970.6000 F70
G1 X125.0000 Y133.0000 Z17.1000 E973.8000 F70
G1 X129.0000 Y133.0000 Z17.1000 E977.0000 F70
G1 X133.0000 Y133.0000 Z17.1000 E980.2000 F70
G1 X137.0000 Y133.0000 Z17.1000 E983.4000 F70
G1 X141.0000 Y133.0000 Z17.1000 E986.6000 F70
G1 X145.0000 Y133.0000 Z17.1000 E989.8000 F70
G1 X149.0000 Y133.0000 Z17.1000 E993.0000 F70
G1 X153.0000 Y133.0000 Z17.1000 E996.2000 F70
G1 X157.0000 Y133.0000 Z17.1000 E999.4000 F70
G1 X161.0000 Y133.0000 Z17.1000 E1002.6000 F70
G1 X165.0000 Y133.0000 Z17.1000 E1005.8000 F70
G1 X169.0000 Y133.0000 Z17.1000 E1009.0000 F70
G1 X173.0000 Y133.0000 Z17.1000 E1012.2000 F70
G1 X177.0000 Y133.0000 Z17.1000 E1015.4000 F70
G1 X181.0000 Y133.0000 Z17.1000 E1018.6000 F70
G1 X181.0000 Y137.0000 Z17.1000 E1021.8000 F70
