
;Generated with Cura_SteamEngine 5.4.0
T0; left extruder
M82 ;absolute extrusion mode
;SV04 start
M140 S61; print bed temperature, heat while continue to conduct following code
M104 S240; nozzle temperature, heat while continue to conduct following code
M280 P0 S160;
G4 P100; pause 100ms
G28; home x, y, z
M420 S1; bed leveling
M190 S61; print bed temperature, wait until reach the temp
M109 S240; nozzle temperature, wait until reach the temp
G92 E0; reset extrusion count to 0; G92=set position, E=extrude, 0=set to zero

; test print of two segments of lines
G1 X10.1 Y20 Z0.28 F5000.0; fast move to position
G1 X10.1 Y200.0 Z0.28 F1500.0 E15; print the first segment
G1 X10.4 Y200.0 Z0.28 F5000.0; fast move to the second position
G1 X10.4 Y20 Z0.28 F1500.0 E30; print the second segment
G92 E0 ;Reset Extruder
G1 Z2.0 F3000;
G92 E0
G92 E0
G1 F2400 E-0.5

; M106 S255; start fan
M204 S500; set acceleration
M205 X16 Y16; set acceleration
    

G0 F2880 X131 Y116.49999856948853 Z19.00000023841858; move to start point
M205 X8 Y8; tune down acceleration
G1 F2400 E0; not sure the purpose of this line
G1 X131.0000 Y120.5000 Z19.0000 E4.0000 F70
G1 X131.0000 Y124.5000 Z19.0000 E8.0000 F70
G1 X131.0000 Y128.5000 Z19.0000 E12.0000 F70
G1 X131.0000 Y132.5000 Z19.0000 E16.0000 F70
G1 X131.0000 Y136.5000 Z19.0000 E20.0000 F70
G1 X131.0000 Y140.5000 Z19.0000 E24.0000 F70
G1 X131.0000 Y144.5000 Z19.0000 E28.0000 F70
G1 X131.0000 Y148.5000 Z19.0000 E32.0000 F70
G1 X131.0000 Y152.5000 Z19.0000 E36.0000 F70
G1 X131.0000 Y156.5000 Z19.0000 E40.0000 F70
G1 X131.0000 Y160.5000 Z19.0000 E44.0000 F70
G1 X131.0000 Y164.5000 Z19.0000 E48.0000 F70
G1 X131.0000 Y168.5000 Z19.0000 E52.0000 F70
G1 X131.0000 Y172.5000 Z19.0000 E56.0000 F70
G1 X131.0000 Y176.5000 Z19.0000 E60.0000 F70
G1 X131.0000 Y180.5000 Z19.0000 E64.0000 F70
G1 X131.0000 Y184.5000 Z19.0000 E68.0000 F70
G1 X135.0000 Y192.5000 Z19.0000 E76.9443 F70
G1 X135.0000 Y188.5000 Z19.0000 E80.9443 F70
G1 X135.0000 Y184.5000 Z19.0000 E84.9443 F70
G1 X135.0000 Y180.5000 Z19.0000 E88.9443 F70
G1 X135.0000 Y176.5000 Z19.0000 E92.9443 F70
G1 X135.0000 Y172.5000 Z19.0000 E96.9443 F70
G1 X135.0000 Y168.5000 Z19.0000 E100.9443 F70
G1 X135.0000 Y164.5000 Z19.0000 E104.9443 F70
G1 X135.0000 Y160.5000 Z19.0000 E108.9443 F70
G1 X135.0000 Y156.5000 Z19.0000 E112.9443 F70
G1 X135.0000 Y152.5000 Z19.0000 E116.9443 F70
G1 X135.0000 Y148.5000 Z19.0000 E120.9443 F70
G1 X135.0000 Y144.5000 Z19.0000 E124.9443 F70
G1 X135.0000 Y140.5000 Z19.0000 E128.9443 F70
G1 X135.0000 Y136.5000 Z19.0000 E132.9443 F70
G1 X135.0000 Y132.5000 Z19.0000 E136.9443 F70
G1 X135.0000 Y128.5000 Z19.0000 E140.9443 F70
G1 X135.0000 Y124.5000 Z19.0000 E144.9443 F70
G1 X135.0000 Y120.5000 Z19.0000 E148.9443 F70
G1 X135.0000 Y116.5000 Z19.0000 E152.9443 F70
G1 X135.0000 Y112.5000 Z19.0000 E156.9443 F70
G1 X139.0000 Y108.5000 Z19.0000 E162.6011 F70
G1 X139.0000 Y112.5000 Z19.0000 E166.6011 F70
G1 X139.0000 Y116.5000 Z19.0000 E170.6011 F70
G1 X139.0000 Y120.5000 Z19.0000 E174.6011 F70
G1 X139.0000 Y124.5000 Z19.0000 E178.6011 F70
G1 X139.0000 Y128.5000 Z19.0000 E182.6011 F70
G1 X139.0000 Y132.5000 Z19.0000 E186.6011 F70
G1 X139.0000 Y136.5000 Z19.0000 E190.6011 F70
G1 X139.0000 Y140.5000 Z19.0000 E194.6011 F70
G1 X139.0000 Y144.5000 Z19.0000 E198.6011 F70
G1 X139.0000 Y148.5000 Z19.0000 E202.6011 F70
G1 X139.0000 Y152.5000 Z19.0000 E206.6011 F70
G1 X139.0000 Y156.5000 Z19.0000 E210.6011 F70
G1 X139.0000 Y160.5000 Z19.0000 E214.6011 F70
G1 X139.0000 Y164.5000 Z19.0000 E218.6011 F70
G1 X139.0000 Y168.5000 Z19.0000 E222.6011 F70
G1 X139.0000 Y172.5000 Z19.0000 E226.6011 F70
G1 X139.0000 Y176.5000 Z19.0000 E230.6011 F70
G1 X139.0000 Y180.5000 Z19.0000 E234.6011 F70
G1 X139.0000 Y184.5000 Z19.0000 E238.6011 F70
G1 X139.0000 Y188.5000 Z19.0000 E242.6011 F70
G1 X139.0000 Y192.5000 Z19.0000 E246.6011 F70
G1 X143.0000 Y192.5000 Z19.0000 E250.6011 F70
G1 X143.0000 Y188.5000 Z19.0000 E254.6011 F70
G1 X143.0000 Y184.5000 Z19.0000 E258.6011 F70
G1 X143.0000 Y180.5000 Z19.0000 E262.6011 F70
G1 X143.0000 Y176.5000 Z19.0000 E266.6011 F70
G1 X143.0000 Y172.5000 Z19.0000 E270.6011 F70
G1 X143.0000 Y168.5000 Z19.0000 E274.6011 F70
G1 X143.0000 Y164.5000 Z19.0000 E278.6011 F70
G1 X143.0000 Y160.5000 Z19.0000 E282.6011 F70
G1 X143.0000 Y156.5000 Z19.0000 E286.6011 F70
G1 X143.0000 Y152.5000 Z19.0000 E290.6011 F70
G1 X143.0000 Y148.5000 Z19.0000 E294.6011 F70
G1 X143.0000 Y144.5000 Z19.0000 E298.6011 F70
G1 X143.0000 Y140.5000 Z19.0000 E302.6011 F70
G1 X143.0000 Y136.5000 Z19.0000 E306.6011 F70
G1 X143.0000 Y132.5000 Z19.0000 E310.6011 F70
G1 X143.0000 Y128.5000 Z19.0000 E314.6011 F70
G1 X143.0000 Y124.5000 Z19.0000 E318.6011 F70
G1 X143.0000 Y120.5000 Z19.0000 E322.6011 F70
G1 X143.0000 Y116.5000 Z19.0000 E326.6011 F70
G1 X143.0000 Y112.5000 Z19.0000 E330.6011 F70
G1 X143.0000 Y108.5000 Z19.0000 E334.6011 F70
G1 X147.0000 Y108.5000 Z19.0000 E338.6011 F70
G1 X147.0000 Y112.5000 Z19.0000 E342.6011 F70
G1 X147.0000 Y116.5000 Z19.0000 E346.6011 F70
G1 X147.0000 Y120.5000 Z19.0000 E350.6011 F70
G1 X147.0000 Y124.5000 Z19.0000 E354.6011 F70
G1 X147.0000 Y128.5000 Z19.0000 E358.6011 F70
G1 X147.0000 Y132.5000 Z19.0000 E362.6011 F70
G1 X147.0000 Y136.5000 Z19.0000 E366.6011 F70
G1 X147.0000 Y140.5000 Z19.0000 E370.6011 F70
G1 X147.0000 Y144.5000 Z19.0000 E374.6011 F70
G1 X147.0000 Y148.5000 Z19.0000 E378.6011 F70
G1 X147.0000 Y152.5000 Z19.0000 E382.6011 F70
G1 X147.0000 Y156.5000 Z19.0000 E386.6011 F70
G1 X147.0000 Y160.5000 Z19.0000 E390.6011 F70
G1 X147.0000 Y164.5000 Z19.0000 E394.6011 F70
G1 X147.0000 Y168.5000 Z19.0000 E398.6011 F70
G1 X147.0000 Y172.5000 Z19.0000 E402.6011 F70
G1 X147.0000 Y176.5000 Z19.0000 E406.6011 F70
G1 X147.0000 Y180.5000 Z19.0000 E410.6011 F70
G1 X147.0000 Y184.5000 Z19.0000 E414.6011 F70
G1 X147.0000 Y188.5000 Z19.0000 E418.6011 F70
G1 X147.0000 Y192.5000 Z19.0000 E422.6011 F70
G1 X151.0000 Y192.5000 Z19.0000 E426.6011 F70
G1 X151.0000 Y188.5000 Z19.0000 E430.6011 F70
G1 X151.0000 Y184.5000 Z19.0000 E434.6011 F70
G1 X151.0000 Y180.5000 Z19.0000 E438.6011 F70
G1 X151.0000 Y176.5000 Z19.0000 E442.6011 F70
G1 X151.0000 Y172.5000 Z19.0000 E446.6011 F70
G1 X151.0000 Y168.5000 Z19.0000 E450.6011 F70
G1 X151.0000 Y164.5000 Z19.0000 E454.6011 F70
G1 X151.0000 Y160.5000 Z19.0000 E458.6011 F70
G1 X151.0000 Y156.5000 Z19.0000 E462.6011 F70
G1 X151.0000 Y152.5000 Z19.0000 E466.6011 F70
G1 X151.0000 Y148.5000 Z19.0000 E470.6011 F70
G1 X151.0000 Y144.5000 Z19.0000 E474.6011 F70
G1 X151.0000 Y140.5000 Z19.0000 E478.6011 F70
G1 X151.0000 Y136.5000 Z19.0000 E482.6011 F70
G1 X151.0000 Y132.5000 Z19.0000 E486.6011 F70
G1 X151.0000 Y128.5000 Z19.0000 E490.6011 F70
G1 X151.0000 Y124.5000 Z19.0000 E494.6011 F70
G1 X151.0000 Y120.5000 Z19.0000 E498.6011 F70
G1 X151.0000 Y116.5000 Z19.0000 E502.6011 F70
G1 X151.0000 Y112.5000 Z19.0000 E506.6011 F70
G1 X151.0000 Y108.5000 Z19.0000 E510.6011 F70
G1 X155.0000 Y108.5000 Z19.0000 E514.6011 F70
G1 X155.0000 Y112.5000 Z19.0000 E518.6011 F70
G1 X155.0000 Y116.5000 Z19.0000 E522.6011 F70
G1 X155.0000 Y120.5000 Z19.0000 E526.6011 F70
G1 X155.0000 Y124.5000 Z19.0000 E530.6011 F70
G1 X155.0000 Y128.5000 Z19.0000 E534.6011 F70
G1 X155.0000 Y132.5000 Z19.0000 E538.6011 F70
G1 X155.0000 Y136.5000 Z19.0000 E542.6011 F70
G1 X155.0000 Y140.5000 Z19.0000 E546.6011 F70
G1 X155.0000 Y144.5000 Z19.0000 E550.6011 F70
G1 X155.0000 Y148.5000 Z19.0000 E554.6011 F70
G1 X155.0000 Y152.5000 Z19.0000 E558.6011 F70
G1 X155.0000 Y156.5000 Z19.0000 E562.6011 F70
G1 X155.0000 Y160.5000 Z19.0000 E566.6011 F70
G1 X155.0000 Y164.5000 Z19.0000 E570.6011 F70
G1 X155.0000 Y168.5000 Z19.0000 E574.6011 F70
G1 X155.0000 Y172.5000 Z19.0000 E578.6011 F70
G1 X155.0000 Y176.5000 Z19.0000 E582.6011 F70
G1 X155.0000 Y180.5000 Z19.0000 E586.6011 F70
G1 X155.0000 Y184.5000 Z19.0000 E590.6011 F70
G1 X155.0000 Y188.5000 Z19.0000 E594.6011 F70
G1 X155.0000 Y192.5000 Z19.0000 E598.6011 F70
G1 X159.0000 Y192.5000 Z19.0000 E602.6011 F70
G1 X159.0000 Y188.5000 Z19.0000 E606.6011 F70
G1 X159.0000 Y184.5000 Z19.0000 E610.6011 F70
G1 X159.0000 Y180.5000 Z19.0000 E614.6011 F70
G1 X159.0000 Y176.5000 Z19.0000 E618.6011 F70
G1 X159.0000 Y172.5000 Z19.0000 E622.6011 F70
G1 X159.0000 Y168.5000 Z19.0000 E626.6011 F70
G1 X159.0000 Y164.5000 Z19.0000 E630.6011 F70
G1 X159.0000 Y160.5000 Z19.0000 E634.6011 F70
G1 X159.0000 Y156.5000 Z19.0000 E638.6011 F70
G1 X159.0000 Y152.5000 Z19.0000 E642.6011 F70
G1 X159.0000 Y148.5000 Z19.0000 E646.6011 F70
G1 X159.0000 Y144.5000 Z19.0000 E650.6011 F70
G1 X159.0000 Y140.5000 Z19.0000 E654.6011 F70
G1 X159.0000 Y136.5000 Z19.0000 E658.6011 F70
G1 X159.0000 Y132.5000 Z19.0000 E662.6011 F70
G1 X159.0000 Y128.5000 Z19.0000 E666.6011 F70
G1 X159.0000 Y124.5000 Z19.0000 E670.6011 F70
G1 X159.0000 Y120.5000 Z19.0000 E674.6011 F70
G1 X159.0000 Y116.5000 Z19.0000 E678.6011 F70
G1 X159.0000 Y112.5000 Z19.0000 E682.6011 F70
G1 X159.0000 Y108.5000 Z19.0000 E686.6011 F70
G1 X163.0000 Y108.5000 Z19.0000 E690.6011 F70
G1 X163.0000 Y112.5000 Z19.0000 E694.6011 F70
G1 X163.0000 Y116.5000 Z19.0000 E698.6011 F70
G1 X163.0000 Y120.5000 Z19.0000 E702.6011 F70
G1 X163.0000 Y124.5000 Z19.0000 E706.6011 F70
G1 X163.0000 Y128.5000 Z19.0000 E710.6011 F70
G1 X163.0000 Y132.5000 Z19.0000 E714.6011 F70
G1 X163.0000 Y136.5000 Z19.0000 E718.6011 F70
G1 X163.0000 Y140.5000 Z19.0000 E722.6011 F70
G1 X163.0000 Y144.5000 Z19.0000 E726.6011 F70
G1 X163.0000 Y148.5000 Z19.0000 E730.6011 F70
G1 X163.0000 Y152.5000 Z19.0000 E734.6011 F70
G1 X163.0000 Y156.5000 Z19.0000 E738.6011 F70
G1 X163.0000 Y160.5000 Z19.0000 E742.6011 F70
G1 X163.0000 Y164.5000 Z19.0000 E746.6011 F70
G1 X163.0000 Y168.5000 Z19.0000 E750.6011 F70
G1 X163.0000 Y172.5000 Z19.0000 E754.6011 F70
G1 X163.0000 Y176.5000 Z19.0000 E758.6011 F70
G1 X163.0000 Y180.5000 Z19.0000 E762.6011 F70
G1 X163.0000 Y184.5000 Z19.0000 E766.6011 F70
G1 X163.0000 Y188.5000 Z19.0000 E770.6011 F70
G1 X163.0000 Y192.5000 Z19.0000 E774.6011 F70
G1 X167.0000 Y192.5000 Z19.0000 E778.6011 F70
G1 X167.0000 Y188.5000 Z19.0000 E782.6011 F70
G1 X167.0000 Y184.5000 Z19.0000 E786.6011 F70
G1 X167.0000 Y180.5000 Z19.0000 E790.6011 F70
G1 X167.0000 Y176.5000 Z19.0000 E794.6011 F70
G1 X167.0000 Y172.5000 Z19.0000 E798.6011 F70
G1 X167.0000 Y168.5000 Z19.0000 E802.6011 F70
G1 X167.0000 Y164.5000 Z19.0000 E806.6011 F70
G1 X167.0000 Y160.5000 Z19.0000 E810.6011 F70
G1 X167.0000 Y156.5000 Z19.0000 E814.6011 F70
G1 X167.0000 Y152.5000 Z19.0000 E818.6011 F70
G1 X167.0000 Y148.5000 Z19.0000 E822.6011 F70
G1 X167.0000 Y144.5000 Z19.0000 E826.6011 F70
G1 X167.0000 Y140.5000 Z19.0000 E830.6011 F70
G1 X167.0000 Y136.5000 Z19.0000 E834.6011 F70
G1 X167.0000 Y132.5000 Z19.0000 E838.6011 F70
G1 X167.0000 Y128.5000 Z19.0000 E842.6011 F70
G1 X167.0000 Y124.5000 Z19.0000 E846.6011 F70
G1 X167.0000 Y120.5000 Z19.0000 E850.6011 F70
G1 X167.0000 Y116.5000 Z19.0000 E854.6011 F70
G1 X167.0000 Y112.5000 Z19.0000 E858.6011 F70
G1 X171.0000 Y116.5000 Z19.0000 E864.2580 F70
G1 X171.0000 Y120.5000 Z19.0000 E868.2580 F70
G1 X171.0000 Y124.5000 Z19.0000 E872.2580 F70
G1 X171.0000 Y128.5000 Z19.0000 E876.2580 F70
G1 X171.0000 Y132.5000 Z19.0000 E880.2580 F70
G1 X171.0000 Y136.5000 Z19.0000 E884.2580 F70
G1 X171.0000 Y140.5000 Z19.0000 E888.2580 F70
G1 X171.0000 Y144.5000 Z19.0000 E892.2580 F70
G1 X171.0000 Y148.5000 Z19.0000 E896.2580 F70
G1 X171.0000 Y152.5000 Z19.0000 E900.2580 F70
G1 X171.0000 Y156.5000 Z19.0000 E904.2580 F70
G1 X171.0000 Y160.5000 Z19.0000 E908.2580 F70
G1 X171.0000 Y164.5000 Z19.0000 E912.2580 F70
G1 X171.0000 Y168.5000 Z19.0000 E916.2580 F70
G1 X171.0000 Y172.5000 Z19.0000 E920.2580 F70
G1 X171.0000 Y176.5000 Z19.0000 E924.2580 F70
G1 X171.0000 Y180.5000 Z19.0000 E928.2580 F70
G1 X171.0000 Y184.5000 Z19.0000 E932.2580 F70
G1 X167.0000 Y192.5000 Z24.0000 E934.3074 F70
G1 X163.0000 Y192.5000 Z24.0000 E938.3074 F70
G1 X159.0000 Y192.5000 Z24.0000 E942.3074 F70
G1 X155.0000 Y192.5000 Z24.0000 E946.3074 F70
G1 X151.0000 Y192.5000 Z24.0000 E950.3074 F70
G1 X147.0000 Y192.5000 Z24.0000 E954.3074 F70
G1 X143.0000 Y192.5000 Z24.0000 E958.3074 F70
G1 X139.0000 Y192.5000 Z24.0000 E962.3074 F70
G1 X135.0000 Y192.5000 Z24.0000 E966.3074 F70
G1 X135.0000 Y188.5000 Z24.0000 E970.3074 F70
G1 X139.0000 Y188.5000 Z24.0000 E974.3074 F70
G1 X143.0000 Y188.5000 Z24.0000 E978.3074 F70
G1 X147.0000 Y188.5000 Z24.0000 E982.3074 F70
G1 X151.0000 Y188.5000 Z24.0000 E986.3074 F70
G1 X155.0000 Y188.5000 Z24.0000 E990.3074 F70
G1 X159.0000 Y188.5000 Z24.0000 E994.3074 F70
G1 X163.0000 Y188.5000 Z24.0000 E998.3074 F70
G1 X167.0000 Y188.5000 Z24.0000 E1002.3074 F70
G1 X171.0000 Y184.5000 Z24.0000 E1007.9642 F70
G1 X167.0000 Y184.5000 Z24.0000 E1011.9642 F70
G1 X163.0000 Y184.5000 Z24.0000 E1015.9642 F70
G1 X159.0000 Y184.5000 Z24.0000 E1019.9642 F70
G1 X155.0000 Y184.5000 Z24.0000 E1023.9642 F70
G1 X151.0000 Y184.5000 Z24.0000 E1027.9642 F70
G1 X147.0000 Y184.5000 Z24.0000 E1031.9642 F70
G1 X143.0000 Y184.5000 Z24.0000 E1035.9642 F70
G1 X139.0000 Y184.5000 Z24.0000 E1039.9642 F70
G1 X135.0000 Y184.5000 Z24.0000 E1043.9642 F70
G1 X131.0000 Y184.5000 Z24.0000 E1047.9642 F70
G1 X131.0000 Y180.5000 Z24.0000 E1051.9642 F70
G1 X135.0000 Y180.5000 Z24.0000 E1055.9642 F70
G1 X139.0000 Y180.5000 Z24.0000 E1059.9642 F70
G1 X143.0000 Y180.5000 Z24.0000 E1063.9642 F70
G1 X147.0000 Y180.5000 Z24.0000 E1067.9642 F70
G1 X151.0000 Y180.5000 Z24.0000 E1071.9642 F70
G1 X155.0000 Y180.5000 Z24.0000 E1075.9642 F70
G1 X159.0000 Y180.5000 Z24.0000 E1079.9642 F70
G1 X163.0000 Y180.5000 Z24.0000 E1083.9642 F70
G1 X167.0000 Y180.5000 Z24.0000 E1087.9642 F70
G1 X171.0000 Y180.5000 Z24.0000 E1091.9642 F70
G1 X171.0000 Y176.5000 Z24.0000 E1095.9642 F70
G1 X167.0000 Y176.5000 Z24.0000 E1099.9642 F70
G1 X163.0000 Y176.5000 Z24.0000 E1103.9642 F70
G1 X159.0000 Y176.5000 Z24.0000 E1107.9642 F70
G1 X155.0000 Y176.5000 Z24.0000 E1111.9642 F70
G1 X151.0000 Y176.5000 Z24.0000 E1115.9642 F70
G1 X147.0000 Y176.5000 Z24.0000 E1119.9642 F70
G1 X143.0000 Y176.5000 Z24.0000 E1123.9642 F70
G1 X139.0000 Y176.5000 Z24.0000 E1127.9642 F70
G1 X135.0000 Y176.5000 Z24.0000 E1131.9642 F70
G1 X131.0000 Y176.5000 Z24.0000 E1135.9642 F70
G1 X131.0000 Y172.5000 Z24.0000 E1139.9642 F70
G1 X135.0000 Y172.5000 Z24.0000 E1143.9642 F70
G1 X139.0000 Y172.5000 Z24.0000 E1147.9642 F70
G1 X143.0000 Y172.5000 Z24.0000 E1151.9642 F70
G1 X147.0000 Y172.5000 Z24.0000 E1155.9642 F70
G1 X151.0000 Y172.5000 Z24.0000 E1159.9642 F70
G1 X155.0000 Y172.5000 Z24.0000 E1163.9642 F70
G1 X159.0000 Y172.5000 Z24.0000 E1167.9642 F70
G1 X163.0000 Y172.5000 Z24.0000 E1171.9642 F70
G1 X167.0000 Y172.5000 Z24.0000 E1175.9642 F70
G1 X171.0000 Y172.5000 Z24.0000 E1179.9642 F70
G1 X171.0000 Y168.5000 Z24.0000 E1183.9642 F70
G1 X167.0000 Y168.5000 Z24.0000 E1187.9642 F70
G1 X163.0000 Y168.5000 Z24.0000 E1191.9642 F70
G1 X159.0000 Y168.5000 Z24.0000 E1195.9642 F70
G1 X155.0000 Y168.5000 Z24.0000 E1199.9642 F70
G1 X151.0000 Y168.5000 Z24.0000 E1203.9642 F70
G1 X147.0000 Y168.5000 Z24.0000 E1207.9642 F70
G1 X143.0000 Y168.5000 Z24.0000 E1211.9642 F70
G1 X139.0000 Y168.5000 Z24.0000 E1215.9642 F70
G1 X135.0000 Y168.5000 Z24.0000 E1219.9642 F70
G1 X131.0000 Y168.5000 Z24.0000 E1223.9642 F70
G1 X131.0000 Y164.5000 Z24.0000 E1227.9642 F70
G1 X135.0000 Y164.5000 Z24.0000 E1231.9642 F70
G1 X139.0000 Y164.5000 Z24.0000 E1235.9642 F70
G1 X143.0000 Y164.5000 Z24.0000 E1239.9642 F70
G1 X147.0000 Y164.5000 Z24.0000 E1243.9642 F70
G1 X151.0000 Y164.5000 Z24.0000 E1247.9642 F70
G1 X155.0000 Y164.5000 Z24.0000 E1251.9642 F70
G1 X159.0000 Y164.5000 Z24.0000 E1255.9642 F70
G1 X163.0000 Y164.5000 Z24.0000 E1259.9642 F70
G1 X167.0000 Y164.5000 Z24.0000 E1263.9642 F70
G1 X171.0000 Y164.5000 Z24.0000 E1267.9642 F70
G1 X171.0000 Y160.5000 Z24.0000 E1271.9642 F70
G1 X167.0000 Y160.5000 Z24.0000 E1275.9642 F70
G1 X163.0000 Y160.5000 Z24.0000 E1279.9642 F70
G1 X159.0000 Y160.5000 Z24.0000 E1283.9642 F70
G1 X155.0000 Y160.5000 Z24.0000 E1287.9642 F70
G1 X151.0000 Y160.5000 Z24.0000 E1291.9642 F70
G1 X147.0000 Y160.5000 Z24.0000 E1295.9642 F70
