
;Generated with Cura_SteamEngine 5.4.0
T0; left extruder
M82 ;absolute extrusion mode
;SV04 start
M140 S60; print bed temperature, heat while continue to conduct following code
M104 S240; nozzle temperature, heat while continue to conduct following code
M280 P0 S160;
G4 P100; pause 100ms
G28; home x, y, z
M420 S1; bed leveling
M190 S60; print bed temperature, wait until reach the temp
M109 S240; nozzle temperature, wait until reach the temp
G92 E0; reset extrusion count to 0; G92=set position, E=extrude, 0=set to zero

; test print of two segments of lines
G1 X10.1 Y20 Z0.28 F5000.0; fast move to position
G1 X10.1 Y200.0 Z0.28 F1500.0 E15; print the first segment
G1 X10.4 Y200.0 Z0.28 F5000.0; fast move to the second position
G1 X10.4 Y20 Z0.28 F1500.0 E30; print the second segment
G92 E0 ;Reset Extruder
G1 Z2.0 F3000;
G92 E0
G92 E0
G1 F2400 E-0.5

; M106 S255; start fan
M204 S500; set acceleration
M205 X16 Y16; set acceleration
    

G0 F2880 X126.6346435546875 Y167.4389944076538 Z43.47072689451975; move to start point
M205 X8 Y8; tune down acceleration
G1 F2400 E0; not sure the purpose of this line
G1 X126.6346 Y171.4390 Z42.8394 E4.0495 F70
G1 X126.6346 Y175.4390 Z42.0702 E8.1228 F70
G1 X126.6346 Y179.4390 Z41.1506 E12.2272 F70
G1 X126.6346 Y183.4390 Z40.0487 E16.3762 F70
G1 X126.6346 Y187.4390 Z38.7273 E20.5888 F70
G1 X126.6346 Y191.4390 Z37.1165 E24.9009 F70
G1 X126.6346 Y195.4390 Z35.0728 E29.3928 F70
G1 X130.6346 Y203.4390 Z29.9502 E39.7001 F70
G1 X130.6346 Y199.4390 Z32.9020 E44.6713 F70
G1 X130.6346 Y195.4390 Z35.3652 E49.3688 F70
G1 X130.6346 Y191.4390 Z37.3775 E53.8465 F70
G1 X130.6346 Y187.4390 Z39.0082 E58.1661 F70
G1 X130.6346 Y183.4390 Z40.3796 E62.3947 F70
G1 X130.6346 Y179.4390 Z41.5311 E66.5571 F70
G1 X130.6346 Y175.4390 Z42.5032 E70.6736 F70
G1 X130.6346 Y171.4390 Z43.3288 E74.7579 F70
G1 X130.6346 Y167.4390 Z44.0084 E78.8152 F70
G1 X134.6346 Y167.4390 Z44.4718 E82.8420 F70
G1 X134.6346 Y171.4390 Z43.7491 E86.9067 F70
G1 X134.6346 Y175.4390 Z42.8763 E91.0008 F70
G1 X134.6346 Y179.4390 Z41.8598 E95.1280 F70
G1 X134.6346 Y183.4390 Z40.6655 E99.3025 F70
G1 X134.6346 Y187.4390 Z39.2547 E103.5440 F70
G1 X134.6346 Y191.4390 Z37.5823 E107.8795 F70
G1 X134.6346 Y195.4390 Z35.5103 E112.3843 F70
G1 X134.6346 Y199.4390 Z33.0333 E117.0891 F70
G1 X134.6346 Y203.4390 Z30.1155 E122.0402 F70
G1 X138.6346 Y207.4390 Z26.7826 E128.6059 F70
G1 X138.6346 Y203.4390 Z30.1970 E133.8650 F70
G1 X138.6346 Y199.4390 Z33.1222 E138.8205 F70
G1 X138.6346 Y195.4390 Z35.6392 E143.5465 F70
G1 X138.6346 Y191.4390 Z37.7520 E148.0702 F70
G1 X138.6346 Y187.4390 Z39.4594 E152.4194 F70
G1 X138.6346 Y183.4390 Z40.8994 E156.6707 F70
G1 X138.6346 Y179.4390 Z42.1253 E160.8543 F70
G1 X138.6346 Y175.4390 Z43.1803 E164.9911 F70
G1 X138.6346 Y171.4390 Z44.0912 E169.0935 F70
G1 X138.6346 Y167.4390 Z44.8497 E173.1648 F70
G1 X142.6346 Y167.4390 Z45.1198 E177.1739 F70
G1 X142.6346 Y171.4390 Z44.3355 E181.2501 F70
G1 X142.6346 Y175.4390 Z43.3977 E185.3585 F70
G1 X142.6346 Y179.4390 Z42.3157 E189.5023 F70
G1 X142.6346 Y183.4390 Z41.0690 E193.6921 F70
G1 X142.6346 Y187.4390 Z39.6118 E197.9492 F70
G1 X142.6346 Y191.4390 Z37.8856 E202.3058 F70
G1 X142.6346 Y195.4390 Z35.7533 E206.8387 F70
G1 X142.6346 Y199.4390 Z33.2065 E211.5806 F70
G1 X142.6346 Y203.4390 Z30.2545 E216.5520 F70
G1 X142.6346 Y207.4390 Z26.8649 E221.7950 F70
G1 X146.6346 Y207.4390 Z26.9155 E225.7953 F70
G1 X146.6346 Y203.4390 Z30.3151 E231.0449 F70
G1 X146.6346 Y199.4390 Z33.2846 E236.0266 F70
G1 X146.6346 Y195.4390 Z35.8428 E240.7747 F70
G1 X146.6346 Y191.4390 Z37.9794 E245.3096 F70
G1 X146.6346 Y187.4390 Z39.7120 E249.6687 F70
G1 X146.6346 Y183.4390 Z41.1753 E253.9280 F70
G1 X146.6346 Y179.4390 Z42.4330 E258.1210 F70
G1 X146.6346 Y175.4390 Z43.5309 E262.2690 F70
G1 X146.6346 Y171.4390 Z44.4845 E266.3811 F70
G1 X146.6346 Y167.4390 Z45.2846 E270.4603 F70
G1 X150.6346 Y167.4390 Z45.3468 E274.4608 F70
G1 X150.6346 Y171.4390 Z44.5406 E278.5412 F70
G1 X150.6346 Y175.4390 Z43.5815 E282.6546 F70
G1 X150.6346 Y179.4390 Z42.4777 E286.8041 F70
G1 X150.6346 Y183.4390 Z41.2166 E290.9982 F70
G1 X150.6346 Y187.4390 Z39.7524 E295.2578 F70
G1 X150.6346 Y191.4390 Z38.0200 E299.6168 F70
G1 X150.6346 Y195.4390 Z35.8850 E304.1509 F70
G1 X150.6346 Y199.4390 Z33.3276 E308.8986 F70
G1 X150.6346 Y203.4390 Z30.3532 E313.8833 F70
G1 X150.6346 Y207.4390 Z26.9385 E319.1425 F70
G1 X154.6346 Y207.4390 Z26.9232 E323.1426 F70
G1 X154.6346 Y203.4390 Z30.3256 E328.3939 F70
G1 X154.6346 Y199.4390 Z33.2974 E333.3770 F70
G1 X154.6346 Y195.4390 Z35.8557 E338.1251 F70
G1 X154.6346 Y191.4390 Z37.9925 E342.6601 F70
G1 X154.6346 Y187.4390 Z39.7255 E347.0194 F70
G1 X154.6346 Y183.4390 Z41.1893 E351.2788 F70
G1 X154.6346 Y179.4390 Z42.4481 E355.4722 F70
G1 X154.6346 Y175.4390 Z43.5482 E359.6207 F70
G1 X154.6346 Y171.4390 Z44.5034 E363.7332 F70
G1 X154.6346 Y167.4390 Z45.3058 E367.8129 F70
G1 X158.6346 Y167.4390 Z45.1576 E371.8156 F70
G1 X158.6346 Y171.4390 Z44.3697 E375.8925 F70
G1 X158.6346 Y175.4390 Z43.4281 E380.0018 F70
G1 X158.6346 Y179.4390 Z42.3425 E384.1465 F70
G1 X158.6346 Y183.4390 Z41.0935 E388.3370 F70
G1 X158.6346 Y187.4390 Z39.6347 E392.5947 F70
G1 X158.6346 Y191.4390 Z37.9059 E396.9523 F70
G1 X158.6346 Y195.4390 Z35.7719 E401.4859 F70
G1 X158.6346 Y199.4390 Z33.2219 E406.2296 F70
G1 X158.6346 Y203.4390 Z30.2647 E411.2040 F70
G1 X158.6346 Y207.4390 Z26.8765 E416.4462 F70
G1 X162.6346 Y207.4390 Z26.8049 E420.4468 F70
G1 X162.6346 Y203.4390 Z30.2078 E425.6984 F70
G1 X162.6346 Y199.4390 Z33.1397 E430.6579 F70
G1 X162.6346 Y195.4390 Z35.6631 E435.3873 F70
G1 X162.6346 Y191.4390 Z37.7784 E439.9122 F70
G1 X162.6346 Y187.4390 Z39.4902 E444.2631 F70
G1 X162.6346 Y183.4390 Z40.9351 E448.5160 F70
G1 X162.6346 Y179.4390 Z42.1649 E452.7008 F70
G1 X162.6346 Y175.4390 Z43.2253 E456.8390 F70
G1 X162.6346 Y171.4390 Z44.1420 E460.9427 F70
G1 X162.6346 Y167.4390 Z44.9059 E465.0150 F70
G1 X166.6346 Y167.4390 Z44.5469 E469.0311 F70
G1 X166.6346 Y171.4390 Z43.8169 E473.0971 F70
G1 X166.6346 Y175.4390 Z42.9364 E477.1929 F70
G1 X166.6346 Y179.4390 Z41.9127 E481.3218 F70
G1 X166.6346 Y183.4390 Z40.7127 E485.4979 F70
G1 X166.6346 Y187.4390 Z39.2924 E489.7426 F70
G1 X166.6346 Y191.4390 Z37.6151 E494.0801 F70
G1 X166.6346 Y195.4390 Z35.5400 E498.5863 F70
G1 X166.6346 Y199.4390 Z33.0543 E503.2957 F70
G1 X166.6346 Y203.4390 Z30.1376 E508.2462 F70
G1 X170.6346 Y203.4390 Z29.9893 E512.2489 F70
G1 X170.6346 Y199.4390 Z32.9400 E517.2195 F70
G1 X170.6346 Y195.4390 Z35.3966 E521.9137 F70
G1 X170.6346 Y191.4390 Z37.4188 E526.3958 F70
G1 X170.6346 Y187.4390 Z39.0519 E530.7163 F70
G1 X170.6346 Y183.4390 Z40.4353 E534.9488 F70
G1 X170.6346 Y179.4390 Z41.5946 E539.1134 F70
G1 X170.6346 Y175.4390 Z42.5746 E543.2317 F70
G1 X170.6346 Y171.4390 Z43.4094 E547.3179 F70
G1 X170.6346 Y167.4390 Z44.0976 E551.3766 F70
G1 X174.6346 Y167.4390 Z43.5743 E555.4107 F70
G1 X174.6346 Y171.4390 Z42.9349 E559.4615 F70
G1 X174.6346 Y175.4390 Z42.1542 E563.5370 F70
G1 X174.6346 Y179.4390 Z41.2234 E567.6438 F70
G1 X174.6346 Y183.4390 Z40.1152 E571.7945 F70
G1 X174.6346 Y187.4390 Z38.7812 E576.0111 F70
G1 X174.6346 Y191.4390 Z37.1695 E580.3236 F70
G1 X174.6346 Y195.4390 Z35.1395 E584.8092 F70
G1 X174.6346 Y199.4390 Z32.6240 E589.5344 F70
G1 X178.6346 Y183.4390 Z39.6567 E607.4637 F70
G1 X178.6346 Y179.4390 Z40.7516 E611.6109 F70
G1 X178.6346 Y175.4390 Z41.6247 E615.7050 F70
G1 X178.6346 Y171.4390 Z42.3462 E619.7696 F70
G1 X178.6346 Y167.4390 Z42.9300 E623.8120 F70
G1 X178.6346 Y167.4390 Z47.9300 E624.8120 F200
G1 X174.6346 Y167.4390 Z48.5743 E628.8635 F70
G1 X170.6346 Y167.4390 Z49.0976 E632.8976 F70
G1 X166.6346 Y167.4390 Z49.5469 E636.9228 F70
G1 X162.6346 Y167.4390 Z49.9059 E640.9388 F70
G1 X158.6346 Y167.4390 Z50.1576 E644.9468 F70
G1 X154.6346 Y167.4390 Z50.3058 E648.9495 F70
G1 X150.6346 Y167.4390 Z50.3468 E652.9497 F70
G1 X146.6346 Y167.4390 Z50.2846 E656.9502 F70
G1 X142.6346 Y167.4390 Z50.1198 E660.9536 F70
G1 X138.6346 Y167.4390 Z49.8497 E664.9627 F70
G1 X134.6346 Y167.4390 Z49.4718 E668.9805 F70
G1 X130.6346 Y167.4390 Z49.0084 E673.0073 F70
G1 X126.6346 Y167.4390 Z48.4707 E677.0432 F70
G1 X126.6346 Y171.4390 Z47.8394 E681.0928 F70
G1 X130.6346 Y171.4390 Z48.3288 E685.1226 F70
G1 X134.6346 Y171.4390 Z48.7491 E689.1446 F70
G1 X138.6346 Y171.4390 Z49.0912 E693.1592 F70
G1 X142.6346 Y171.4390 Z49.3355 E697.1667 F70
G1 X146.6346 Y171.4390 Z49.4845 E701.1694 F70
G1 X150.6346 Y171.4390 Z49.5406 E705.1698 F70
G1 X154.6346 Y171.4390 Z49.5034 E709.1700 F70
G1 X158.6346 Y171.4390 Z49.3697 E713.1722 F70
G1 X162.6346 Y171.4390 Z49.1420 E717.1787 F70
G1 X166.6346 Y171.4390 Z48.8169 E721.1919 F70
G1 X170.6346 Y171.4390 Z48.4094 E725.2126 F70
G1 X174.6346 Y171.4390 Z47.9349 E729.2406 F70
G1 X178.6346 Y171.4390 Z47.3462 E733.2837 F70
G1 X178.6346 Y175.4390 Z46.6247 E737.3483 F70
G1 X174.6346 Y175.4390 Z47.1542 E741.3832 F70
G1 X170.6346 Y175.4390 Z47.5746 E745.4052 F70
G1 X166.6346 Y175.4390 Z47.9364 E749.4215 F70
G1 X162.6346 Y175.4390 Z48.2253 E753.4320 F70
G1 X158.6346 Y175.4390 Z48.4281 E757.4371 F70
G1 X154.6346 Y175.4390 Z48.5482 E761.4389 F70
G1 X150.6346 Y175.4390 Z48.5815 E765.4390 F70
G1 X146.6346 Y175.4390 Z48.5309 E769.4394 F70
G1 X142.6346 Y175.4390 Z48.3977 E773.4416 F70
G1 X138.6346 Y175.4390 Z48.1803 E777.4475 F70
G1 X134.6346 Y175.4390 Z47.8763 E781.4590 F70
G1 X130.6346 Y175.4390 Z47.5032 E785.4764 F70
G1 X126.6346 Y175.4390 Z47.0702 E789.4997 F70
G1 X126.6346 Y179.4390 Z46.1506 E793.6041 F70
G1 X130.6346 Y179.4390 Z46.5311 E797.6222 F70
G1 X134.6346 Y179.4390 Z46.8598 E801.6356 F70
G1 X138.6346 Y179.4390 Z47.1253 E805.6444 F70
G1 X142.6346 Y179.4390 Z47.3157 E809.6490 F70
G1 X146.6346 Y179.4390 Z47.4330 E813.6507 F70
G1 X150.6346 Y179.4390 Z47.4777 E817.6509 F70
G1 X154.6346 Y179.4390 Z47.4481 E821.6511 F70
G1 X158.6346 Y179.4390 Z47.3425 E825.6524 F70
G1 X162.6346 Y179.4390 Z47.1649 E829.6564 F70
G1 X166.6346 Y179.4390 Z46.9127 E833.6643 F70
G1 X170.6346 Y179.4390 Z46.5946 E837.6770 F70
G1 X174.6346 Y179.4390 Z46.2234 E841.6942 F70
G1 X178.6346 Y179.4390 Z45.7516 E845.7219 F70
G1 X178.6346 Y183.4390 Z44.6567 E849.8690 F70
G1 X174.6346 Y183.4390 Z45.1152 E853.8952 F70
G1 X170.6346 Y183.4390 Z45.4353 E857.9080 F70
G1 X166.6346 Y183.4390 Z45.7127 E861.9176 F70
G1 X162.6346 Y183.4390 Z45.9351 E865.9238 F70
G1 X158.6346 Y183.4390 Z46.0935 E869.9269 F70
G1 X154.6346 Y183.4390 Z46.1893 E873.9281 F70
G1 X150.6346 Y183.4390 Z46.2166 E877.9281 F70
G1 X146.6346 Y183.4390 Z46.1753 E881.9284 F70
G1 X142.6346 Y183.4390 Z46.0690 E885.9298 F70
G1 X138.6346 Y183.4390 Z45.8994 E889.9334 F70
G1 X134.6346 Y183.4390 Z45.6655 E893.9402 F70
G1 X130.6346 Y183.4390 Z45.3796 E897.9504 F70
G1 X126.6346 Y183.4390 Z45.0487 E901.9641 F70
G1 X126.6346 Y187.4390 Z43.7273 E906.1767 F70
G1 X130.6346 Y187.4390 Z44.0082 E910.1865 F70
G1 X134.6346 Y187.4390 Z44.2547 E914.1941 F70
G1 X138.6346 Y187.4390 Z44.4594 E918.1993 F70
G1 X142.6346 Y187.4390 Z44.6118 E922.2022 F70
G1 X146.6346 Y187.4390 Z44.7120 E926.2035 F70
G1 X150.6346 Y187.4390 Z44.7524 E930.2037 F70
G1 X154.6346 Y187.4390 Z44.7255 E934.2038 F70
G1 X158.6346 Y187.4390 Z44.6347 E938.2048 F70
G1 X162.6346 Y187.4390 Z44.4902 E942.2074 F70
G1 X166.6346 Y187.4390 Z44.2924 E946.2123 F70
G1 X170.6346 Y187.4390 Z44.0519 E950.2196 F70
G1 X174.6346 Y187.4390 Z43.7812 E954.2287 F70
G1 X174.6346 Y191.4390 Z42.1695 E958.5412 F70
G1 X170.6346 Y191.4390 Z42.4188 E962.5489 F70
G1 X166.6346 Y191.4390 Z42.6151 E966.5537 F70
G1 X162.6346 Y191.4390 Z42.7784 E970.5571 F70
G1 X158.6346 Y191.4390 Z42.9059 E974.5591 F70
G1 X154.6346 Y191.4390 Z42.9925 E978.5600 F70
G1 X150.6346 Y191.4390 Z43.0200 E982.5601 F70
G1 X146.6346 Y191.4390 Z42.9794 E986.5603 F70
G1 X142.6346 Y191.4390 Z42.8856 E990.5614 F70
G1 X138.6346 Y191.4390 Z42.7520 E994.5637 F70
G1 X134.6346 Y191.4390 Z42.5823 E998.5673 F70
G1 X130.6346 Y191.4390 Z42.3775 E1002.5725 F70
G1 X126.6346 Y191.4390 Z42.1165 E1006.5810 F70
G1 X126.6346 Y195.4390 Z40.0728 E1011.0729 F70
G1 X130.6346 Y195.4390 Z40.3652 E1015.0835 F70
G1 X134.6346 Y195.4390 Z40.5103 E1019.0862 F70
G1 X138.6346 Y195.4390 Z40.6392 E1023.0882 F70
G1 X142.6346 Y195.4390 Z40.7533 E1027.0899 F70
G1 X146.6346 Y195.4390 Z40.8428 E1031.0909 F70
G1 X150.6346 Y195.4390 Z40.8850 E1035.0911 F70
G1 X154.6346 Y195.4390 Z40.8557 E1039.0912 F70
G1 X158.6346 Y195.4390 Z40.7719 E1043.0921 F70
G1 X162.6346 Y195.4390 Z40.6631 E1047.0935 F70
G1 X166.6346 Y195.4390 Z40.5400 E1051.0954 F70
G1 X170.6346 Y195.4390 Z40.3966 E1055.0980 F70
G1 X174.6346 Y195.4390 Z40.1395 E1059.1063 F70
G1 X174.6346 Y199.4390 Z37.6240 E1063.8315 F70
G1 X170.6346 Y199.4390 Z37.9400 E1067.8440 F70
G1 X166.6346 Y199.4390 Z38.0543 E1071.8456 F70
G1 X162.6346 Y199.4390 Z38.1397 E1075.8465 F70
G1 X158.6346 Y199.4390 Z38.2219 E1079.8474 F70
G1 X154.6346 Y199.4390 Z38.2974 E1083.8481 F70
G1 X150.6346 Y199.4390 Z38.3276 E1087.8482 F70
G1 X146.6346 Y199.4390 Z38.2846 E1091.8484 F70
G1 X142.6346 Y199.4390 Z38.2065 E1095.8492 F70
G1 X138.6346 Y199.4390 Z38.1222 E1099.8501 F70
G1 X134.6346 Y199.4390 Z38.0333 E1103.8511 F70
G1 X130.6346 Y199.4390 Z37.9020 E1107.8532 F70
G1 X130.6346 Y203.4390 Z34.9502 E1112.8244 F70
G1 X134.6346 Y203.4390 Z35.1155 E1116.8278 F70
G1 X138.6346 Y203.4390 Z35.1970 E1120.8287 F70
G1 X142.6346 Y203.4390 Z35.2545 E1124.8291 F70
G1 X146.6346 Y203.4390 Z35.3151 E1128.8295 F70
G1 X150.6346 Y203.4390 Z35.3532 E1132.8297 F70
G1 X154.6346 Y203.4390 Z35.3256 E1136.8298 F70
G1 X158.6346 Y203.4390 Z35.2647 E1140.8303 F70
G1 X162.6346 Y203.4390 Z35.2078 E1144.8307 F70
G1 X166.6346 Y203.4390 Z35.1376 E1148.8313 F70
G1 X170.6346 Y203.4390 Z34.9893 E1152.8340 F70
G1 X162.6346 Y207.4390 Z31.8049 E1162.3282 F70
G1 X158.6346 Y207.4390 Z31.8765 E1166.3289 F70
G1 X154.6346 Y207.4390 Z31.9232 E1170.3292 F70
G1 X150.6346 Y207.4390 Z31.9385 E1174.3292 F70
G1 X146.6346 Y207.4390 Z31.9155 E1178.3293 F70
G1 X142.6346 Y207.4390 Z31.8649 E1182.3296 F70
G1 X138.6346 Y207.4390 Z31.7826 E1186.3304 F70
G1 X126.6346 Y195.4390 Z45.0728 E1190.6415 F200
G1 X126.6346 Y191.4390 Z47.1165 E1195.1333 F70
G1 X126.6346 Y187.4390 Z48.7273 E1199.4455 F70
G1 X126.6346 Y183.4390 Z50.0487 E1203.6581 F70
G1 X126.6346 Y179.4390 Z51.1506 E1207.8071 F70
G1 X126.6346 Y175.4390 Z52.0702 E1211.9114 F70
G1 X126.6346 Y171.4390 Z52.8394 E1215.9847 F70
G1 X126.6346 Y167.4390 Z53.4707 E1220.0342 F70
G1 X130.6346 Y167.4390 Z54.0084 E1224.0702 F70
G1 X130.6346 Y171.4390 Z53.3288 E1228.1275 F70
G1 X130.6346 Y175.4390 Z52.5032 E1232.2118 F70
G1 X130.6346 Y179.4390 Z51.5311 E1236.3283 F70
G1 X130.6346 Y183.4390 Z50.3796 E1240.4907 F70
G1 X130.6346 Y187.4390 Z49.0082 E1244.7193 F70
G1 X130.6346 Y191.4390 Z47.3775 E1249.0389 F70
G1 X130.6346 Y195.4390 Z45.3652 E1253.5166 F70
G1 X130.6346 Y199.4390 Z42.9020 E1258.2141 F70
G1 X130.6346 Y203.4390 Z39.9502 E1263.1853 F70
G1 X134.6346 Y203.4390 Z40.1155 E1267.1888 F70
G1 X134.6346 Y199.4390 Z43.0333 E1272.1398 F70
G1 X134.6346 Y195.4390 Z45.5103 E1276.8447 F70
G1 X134.6346 Y191.4390 Z47.5823 E1281.3495 F70
G1 X134.6346 Y187.4390 Z49.2547 E1285.6850 F70
G1 X134.6346 Y183.4390 Z50.6655 E1289.9265 F70
G1 X134.6346 Y179.4390 Z51.8598 E1294.1010 F70
G1 X134.6346 Y175.4390 Z52.8763 E1298.2282 F70
G1 X134.6346 Y171.4390 Z53.7491 E1302.3223 F70
G1 X134.6346 Y167.4390 Z54.4718 E1306.3870 F70
G1 X138.6346 Y167.4390 Z54.8497 E1310.4048 F70
G1 X138.6346 Y171.4390 Z54.0912 E1314.4761 F70
G1 X138.6346 Y175.4390 Z53.1803 E1318.5785 F70
G1 X138.6346 Y179.4390 Z52.1253 E1322.7153 F70
G1 X138.6346 Y183.4390 Z50.8994 E1326.8989 F70
G1 X138.6346 Y187.4390 Z49.4594 E1331.1503 F70
G1 X138.6346 Y191.4390 Z47.7520 E1335.4994 F70
G1 X138.6346 Y195.4390 Z45.6392 E1340.0231 F70
G1 X138.6346 Y199.4390 Z43.1222 E1344.7491 F70
G1 X138.6346 Y203.4390 Z40.1970 E1349.7046 F70
G1 X138.6346 Y207.4390 Z36.7826 E1354.9637 F70
G1 X142.6346 Y207.4390 Z36.8649 E1358.9646 F70
G1 X142.6346 Y203.4390 Z40.2545 E1364.2076 F70
G1 X142.6346 Y199.4390 Z43.2065 E1369.1789 F70
G1 X142.6346 Y195.4390 Z45.7533 E1373.9209 F70
G1 X142.6346 Y191.4390 Z47.8856 E1378.4538 F70
G1 X142.6346 Y187.4390 Z49.6118 E1382.8103 F70
