
;Generated with Cura_SteamEngine 5.4.0
T0; left extruder
M82 ;absolute extrusion mode
;SV04 start
M140 S60; print bed temperature, heat while continue to conduct following code
M104 S240; nozzle temperature, heat while continue to conduct following code
M280 P0 S160;
G4 P100; pause 100ms
G28; home x, y, z
M420 S1; bed leveling
M190 S60; print bed temperature, wait until reach the temp
M109 S240; nozzle temperature, wait until reach the temp
G92 E0; reset extrusion count to 0; G92=set position, E=extrude, 0=set to zero

; test print of two segments of lines
G1 X10.1 Y20 Z0.28 F5000.0; fast move to position
G1 X10.1 Y200.0 Z0.28 F1500.0 E15; print the first segment
G1 X10.4 Y200.0 Z0.28 F5000.0; fast move to the second position
G1 X10.4 Y20 Z0.28 F1500.0 E30; print the second segment
G92 E0 ;Reset Extruder
G1 Z2.0 F3000;
G92 E0
G92 E0
G1 F2400 E-0.5

; M106 S255; start fan
M204 S500; set acceleration
M205 X16 Y16; set acceleration
    

G0 F2880 X127.07464408874512 Y137.97778701782227 Z37.96562531631052; move to start point
M205 X8 Y8; tune down acceleration
G1 F2400 E0; not sure the purpose of this line
G1 X127.0746 Y141.9778 Z38.3036 E4.0143 F70
G1 X127.0746 Y145.9778 Z38.5149 E8.0198 F70
G1 X127.0746 Y149.9778 Z38.6133 E12.0210 F70
G1 X127.0746 Y153.9778 Z38.5906 E16.0211 F70
G1 X127.0746 Y157.9778 Z38.4375 E20.0240 F70
G1 X127.0746 Y161.9778 Z38.1509 E24.0343 F70
G1 X127.0746 Y165.9778 Z37.7116 E28.0583 F70
G1 X127.0746 Y169.9778 Z37.1341 E32.0998 F70
G1 X127.0746 Y173.9778 Z36.4050 E36.1657 F70
G1 X127.0746 Y177.9778 Z35.5401 E40.2582 F70
G1 X131.0746 Y177.9778 Z35.9357 E44.2777 F70
G1 X131.0746 Y173.9778 Z36.8480 E48.3804 F70
G1 X131.0746 Y169.9778 Z37.6356 E52.4572 F70
G1 X131.0746 Y165.9778 Z38.2551 E56.5049 F70
G1 X131.0746 Y161.9778 Z38.7371 E60.5338 F70
G1 X131.0746 Y157.9778 Z39.0503 E64.5461 F70
G1 X131.0746 Y153.9778 Z39.2199 E68.5497 F70
G1 X131.0746 Y149.9778 Z39.2430 E72.5497 F70
G1 X131.0746 Y145.9778 Z39.1292 E76.5513 F70
G1 X131.0746 Y141.9778 Z38.8905 E80.5585 F70
G1 X131.0746 Y137.9778 Z38.5145 E84.5761 F70
G1 X135.0746 Y137.9778 Z38.9847 E88.6036 F70
G1 X135.0746 Y141.9778 Z39.3928 E92.6244 F70
G1 X135.0746 Y145.9778 Z39.6555 E96.6330 F70
G1 X135.0746 Y149.9778 Z39.7825 E100.6350 F70
G1 X135.0746 Y153.9778 Z39.7597 E104.6351 F70
G1 X135.0746 Y157.9778 Z39.5777 E108.6392 F70
G1 X135.0746 Y161.9778 Z39.2399 E112.6535 F70
G1 X135.0746 Y165.9778 Z38.7252 E116.6865 F70
G1 X135.0746 Y169.9778 Z38.0642 E120.7407 F70
G1 X135.0746 Y173.9778 Z37.2331 E124.8261 F70
G1 X135.0746 Y177.9778 Z36.2733 E128.9397 F70
G1 X139.0746 Y177.9778 Z36.5439 E132.9488 F70
G1 X139.0746 Y173.9778 Z37.5435 E137.0718 F70
G1 X139.0746 Y169.9778 Z38.4083 E141.1642 F70
G1 X139.0746 Y165.9778 Z39.1043 E145.2243 F70
G1 X139.0746 Y161.9778 Z39.6440 E149.2606 F70
G1 X139.0746 Y157.9778 Z40.0027 E153.2766 F70
G1 X139.0746 Y153.9778 Z40.1943 E157.2812 F70
G1 X139.0746 Y149.9778 Z40.2167 E161.2813 F70
G1 X139.0746 Y145.9778 Z40.0795 E165.2836 F70
G1 X139.0746 Y141.9778 Z39.7969 E169.2936 F70
G1 X139.0746 Y137.9778 Z39.3630 E173.3171 F70
G1 X143.0746 Y137.9778 Z39.6302 E177.3260 F70
G1 X143.0746 Y141.9778 Z40.0822 E181.3515 F70
G1 X143.0746 Y145.9778 Z40.3792 E185.3625 F70
G1 X143.0746 Y149.9778 Z40.5235 E189.3651 F70
G1 X143.0746 Y153.9778 Z40.5014 E193.3651 F70
G1 X143.0746 Y157.9778 Z40.3030 E197.3700 F70
G1 X143.0746 Y161.9778 Z39.9292 E201.3875 F70
G1 X143.0746 Y165.9778 Z39.3723 E205.4260 F70
G1 X143.0746 Y169.9778 Z38.6508 E209.4906 F70
G1 X143.0746 Y173.9778 Z37.7633 E213.5879 F70
G1 X143.0746 Y177.9778 Z36.7350 E217.7179 F70
G1 X147.0746 Y177.9778 Z36.8498 E221.7196 F70
G1 X147.0746 Y173.9778 Z37.8959 E225.8541 F70
G1 X147.0746 Y169.9778 Z38.7953 E229.9540 F70
G1 X147.0746 Y165.9778 Z39.5332 E234.0215 F70
G1 X147.0746 Y161.9778 Z40.0991 E238.0613 F70
G1 X147.0746 Y157.9778 Z40.4826 E242.0797 F70
G1 X147.0746 Y153.9778 Z40.6843 E246.0847 F70
G1 X147.0746 Y149.9778 Z40.7061 E250.0848 F70
G1 X147.0746 Y145.9778 Z40.5577 E254.0875 F70
G1 X147.0746 Y141.9778 Z40.2521 E258.0992 F70
G1 X147.0746 Y137.9778 Z39.7893 E262.1259 F70
G1 X151.0746 Y137.9778 Z39.8418 E266.1262 F70
G1 X151.0746 Y141.9778 Z40.3077 E270.1533 F70
G1 X151.0746 Y145.9778 Z40.6165 E274.1652 F70
G1 X151.0746 Y149.9778 Z40.7662 E278.1680 F70
G1 X151.0746 Y153.9778 Z40.7446 E282.1680 F70
G1 X151.0746 Y157.9778 Z40.5419 E286.1732 F70
G1 X151.0746 Y161.9778 Z40.1551 E290.1918 F70
G1 X151.0746 Y165.9778 Z39.5864 E294.2321 F70
G1 X151.0746 Y169.9778 Z38.8430 E298.3006 F70
G1 X151.0746 Y173.9778 Z37.9398 E302.4013 F70
G1 X151.0746 Y177.9778 Z36.8880 E306.5372 F70
G1 X155.0746 Y177.9778 Z36.8467 E310.5374 F70
G1 X155.0746 Y173.9778 Z37.8920 E314.6718 F70
G1 X155.0746 Y169.9778 Z38.7914 E318.7716 F70
G1 X155.0746 Y165.9778 Z39.5286 E322.8390 F70
G1 X155.0746 Y161.9778 Z40.0945 E326.8788 F70
G1 X155.0746 Y157.9778 Z40.4775 E330.8971 F70
G1 X155.0746 Y153.9778 Z40.6792 E334.9022 F70
G1 X155.0746 Y149.9778 Z40.7011 E338.9023 F70
G1 X155.0746 Y145.9778 Z40.5527 E342.9050 F70
G1 X155.0746 Y141.9778 Z40.2473 E346.9166 F70
G1 X155.0746 Y137.9778 Z39.7849 E350.9433 F70
G1 X159.0746 Y137.9778 Z39.6221 E354.9466 F70
G1 X159.0746 Y141.9778 Z40.0736 E358.9720 F70
G1 X159.0746 Y145.9778 Z40.3701 E362.9830 F70
G1 X159.0746 Y149.9778 Z40.5142 E366.9856 F70
G1 X159.0746 Y153.9778 Z40.4922 E370.9856 F70
G1 X159.0746 Y157.9778 Z40.2941 E374.9905 F70
G1 X159.0746 Y161.9778 Z39.9208 E379.0079 F70
G1 X159.0746 Y165.9778 Z39.3643 E383.0464 F70
G1 X159.0746 Y169.9778 Z38.6439 E387.1108 F70
G1 X159.0746 Y173.9778 Z37.7566 E391.2080 F70
G1 X159.0746 Y177.9778 Z36.7295 E395.3378 F70
G1 X163.0746 Y177.9778 Z36.5348 E399.3425 F70
G1 X163.0746 Y173.9778 Z37.5343 E403.4655 F70
G1 X163.0746 Y169.9778 Z38.3968 E407.5574 F70
G1 X163.0746 Y165.9778 Z39.0928 E411.6175 F70
G1 X163.0746 Y161.9778 Z39.6309 E415.6536 F70
G1 X163.0746 Y157.9778 Z39.9895 E419.6696 F70
G1 X163.0746 Y153.9778 Z40.1807 E423.6742 F70
G1 X163.0746 Y149.9778 Z40.2029 E427.6742 F70
G1 X163.0746 Y145.9778 Z40.0660 E431.6766 F70
G1 X163.0746 Y141.9778 Z39.7840 E435.6865 F70
G1 X163.0746 Y137.9778 Z39.3510 E439.7099 F70
G1 X167.0746 Y137.9778 Z38.9687 E443.7281 F70
G1 X167.0746 Y141.9778 Z39.3756 E447.7487 F70
G1 X167.0746 Y145.9778 Z39.6375 E451.7573 F70
G1 X167.0746 Y149.9778 Z39.7640 E455.7593 F70
G1 X167.0746 Y153.9778 Z39.7415 E459.7594 F70
G1 X167.0746 Y157.9778 Z39.5601 E463.7635 F70
G1 X167.0746 Y161.9778 Z39.2225 E467.7777 F70
G1 X167.0746 Y165.9778 Z38.7099 E471.8104 F70
G1 X167.0746 Y169.9778 Z38.0488 E475.8647 F70
G1 X167.0746 Y173.9778 Z37.2208 E479.9495 F70
G1 X167.0746 Y177.9778 Z36.2609 E484.0630 F70
G1 X171.0746 Y177.9778 Z35.9216 E488.0774 F70
G1 X171.0746 Y173.9778 Z36.8335 E492.1800 F70
G1 X171.0746 Y169.9778 Z37.6182 E496.2563 F70
G1 X171.0746 Y165.9778 Z38.2369 E500.3038 F70
G1 X171.0746 Y161.9778 Z38.7174 E504.3326 F70
G1 X171.0746 Y157.9778 Z39.0293 E508.3447 F70
G1 X171.0746 Y153.9778 Z39.1982 E512.3483 F70
G1 X171.0746 Y149.9778 Z39.2211 E516.3484 F70
G1 X171.0746 Y145.9778 Z39.1078 E520.3500 F70
G1 X171.0746 Y141.9778 Z38.8700 E524.3570 F70
G1 X171.0746 Y137.9778 Z38.4954 E528.3745 F70
G1 X175.0746 Y137.9778 Z37.9436 E532.4124 F70
G1 X175.0746 Y141.9778 Z38.2800 E536.4265 F70
G1 X175.0746 Y145.9778 Z38.4906 E540.4321 F70
G1 X175.0746 Y149.9778 Z38.5880 E544.4333 F70
G1 X175.0746 Y153.9778 Z38.5653 E548.4333 F70
G1 X175.0746 Y157.9778 Z38.4134 E552.4362 F70
G1 X175.0746 Y161.9778 Z38.1267 E556.4465 F70
G1 X175.0746 Y165.9778 Z37.6906 E560.4702 F70
G1 X175.0746 Y169.9778 Z37.1130 E564.5117 F70
G1 X175.0746 Y173.9778 Z36.3883 E568.5768 F70
G1 X175.0746 Y177.9778 Z35.5230 E572.6693 F70
G1 X175.0746 Y177.9778 Z40.5230 E573.6693 F200
G1 X171.0746 Y177.9778 Z40.9216 E577.6891 F70
G1 X167.0746 Y177.9778 Z41.2609 E581.7035 F70
G1 X163.0746 Y177.9778 Z41.5348 E585.7129 F70
G1 X159.0746 Y177.9778 Z41.7295 E589.7176 F70
G1 X155.0746 Y177.9778 Z41.8467 E593.7193 F70
G1 X151.0746 Y177.9778 Z41.8880 E597.7195 F70
G1 X147.0746 Y177.9778 Z41.8498 E601.7197 F70
G1 X143.0746 Y177.9778 Z41.7350 E605.7214 F70
G1 X139.0746 Y177.9778 Z41.5439 E609.7259 F70
G1 X135.0746 Y177.9778 Z41.2733 E613.7351 F70
G1 X131.0746 Y177.9778 Z40.9357 E617.7493 F70
G1 X127.0746 Y177.9778 Z40.5401 E621.7688 F70
G1 X127.0746 Y173.9778 Z41.4050 E625.8613 F70
G1 X131.0746 Y173.9778 Z41.8480 E629.8857 F70
G1 X135.0746 Y173.9778 Z42.2331 E633.9042 F70
G1 X139.0746 Y173.9778 Z42.5435 E637.9162 F70
G1 X143.0746 Y173.9778 Z42.7633 E641.9223 F70
G1 X147.0746 Y173.9778 Z42.8959 E645.9245 F70
G1 X151.0746 Y173.9778 Z42.9398 E649.9247 F70
G1 X155.0746 Y173.9778 Z42.8920 E653.9250 F70
G1 X159.0746 Y173.9778 Z42.7566 E657.9273 F70
G1 X163.0746 Y173.9778 Z42.5343 E661.9334 F70
G1 X167.0746 Y173.9778 Z42.2208 E665.9457 F70
G1 X171.0746 Y173.9778 Z41.8335 E669.9644 F70
G1 X175.0746 Y173.9778 Z41.3883 E673.9891 F70
G1 X175.0746 Y169.9778 Z42.1130 E678.0542 F70
G1 X171.0746 Y169.9778 Z42.6182 E682.0860 F70
G1 X167.0746 Y169.9778 Z43.0488 E686.1091 F70
G1 X163.0746 Y169.9778 Z43.3968 E690.1242 F70
G1 X159.0746 Y169.9778 Z43.6439 E694.1319 F70
G1 X155.0746 Y169.9778 Z43.7914 E698.1346 F70
G1 X151.0746 Y169.9778 Z43.8430 E702.1349 F70
G1 X147.0746 Y169.9778 Z43.7953 E706.1352 F70
G1 X143.0746 Y169.9778 Z43.6508 E710.1378 F70
G1 X139.0746 Y169.9778 Z43.4083 E714.1452 F70
G1 X135.0746 Y169.9778 Z43.0642 E718.1599 F70
G1 X131.0746 Y169.9778 Z42.6356 E722.1828 F70
G1 X127.0746 Y169.9778 Z42.1341 E726.2141 F70
G1 X127.0746 Y165.9778 Z42.7116 E730.2556 F70
G1 X131.0746 Y165.9778 Z43.2551 E734.2924 F70
G1 X135.0746 Y165.9778 Z43.7252 E738.3199 F70
G1 X139.0746 Y165.9778 Z44.1043 E742.3378 F70
G1 X143.0746 Y165.9778 Z44.3723 E746.3468 F70
G1 X147.0746 Y165.9778 Z44.5332 E750.3500 F70
G1 X151.0746 Y165.9778 Z44.5864 E754.3504 F70
G1 X155.0746 Y165.9778 Z44.5286 E758.3508 F70
G1 X159.0746 Y165.9778 Z44.3643 E762.3542 F70
G1 X163.0746 Y165.9778 Z44.0928 E766.3634 F70
G1 X167.0746 Y165.9778 Z43.7099 E770.3817 F70
G1 X171.0746 Y165.9778 Z43.2369 E774.4095 F70
G1 X175.0746 Y165.9778 Z42.6906 E778.4467 F70
G1 X175.0746 Y161.9778 Z43.1267 E782.4704 F70
G1 X171.0746 Y161.9778 Z43.7174 E786.5137 F70
G1 X167.0746 Y161.9778 Z44.2225 E790.5455 F70
G1 X163.0746 Y161.9778 Z44.6309 E794.5663 F70
G1 X159.0746 Y161.9778 Z44.9208 E798.5768 F70
G1 X155.0746 Y161.9778 Z45.0945 E802.5806 F70
G1 X151.0746 Y161.9778 Z45.1551 E806.5810 F70
G1 X147.0746 Y161.9778 Z45.0991 E810.5814 F70
G1 X143.0746 Y161.9778 Z44.9292 E814.5850 F70
G1 X139.0746 Y161.9778 Z44.6440 E818.5952 F70
G1 X135.0746 Y161.9778 Z44.2399 E822.6155 F70
G1 X131.0746 Y161.9778 Z43.7371 E826.6470 F70
G1 X127.0746 Y161.9778 Z43.1509 E830.6897 F70
G1 X127.0746 Y157.9778 Z43.4375 E834.7000 F70
G1 X131.0746 Y157.9778 Z44.0503 E838.7467 F70
G1 X135.0746 Y157.9778 Z44.5777 E842.7813 F70
G1 X139.0746 Y157.9778 Z45.0027 E846.8038 F70
G1 X143.0746 Y157.9778 Z45.3030 E850.8151 F70
G1 X147.0746 Y157.9778 Z45.4826 E854.8191 F70
G1 X151.0746 Y157.9778 Z45.5419 E858.8195 F70
G1 X155.0746 Y157.9778 Z45.4775 E862.8200 F70
G1 X159.0746 Y157.9778 Z45.2941 E866.8242 F70
G1 X163.0746 Y157.9778 Z44.9895 E870.8358 F70
G1 X167.0746 Y157.9778 Z44.5601 E874.8588 F70
G1 X171.0746 Y157.9778 Z44.0293 E878.8939 F70
G1 X175.0746 Y157.9778 Z43.4134 E882.9410 F70
G1 X175.0746 Y153.9778 Z43.5653 E886.9439 F70
G1 X171.0746 Y153.9778 Z44.1982 E890.9937 F70
G1 X167.0746 Y153.9778 Z44.7415 E895.0304 F70
G1 X163.0746 Y153.9778 Z45.1807 E899.0544 F70
G1 X159.0746 Y153.9778 Z45.4922 E903.0665 F70
G1 X155.0746 Y153.9778 Z45.6792 E907.0709 F70
G1 X151.0746 Y153.9778 Z45.7446 E911.0714 F70
G1 X147.0746 Y153.9778 Z45.6843 E915.0719 F70
G1 X143.0746 Y153.9778 Z45.5014 E919.0761 F70
G1 X139.0746 Y153.9778 Z45.1943 E923.0878 F70
G1 X135.0746 Y153.9778 Z44.7597 E927.1114 F70
G1 X131.0746 Y153.9778 Z44.2199 E931.1476 F70
G1 X127.0746 Y153.9778 Z43.5906 E935.1968 F70
G1 X127.0746 Y149.9778 Z43.6133 E939.1969 F70
G1 X131.0746 Y149.9778 Z44.2430 E943.2461 F70
G1 X135.0746 Y149.9778 Z44.7825 E947.2824 F70
G1 X139.0746 Y149.9778 Z45.2167 E951.3059 F70
G1 X143.0746 Y149.9778 Z45.5235 E955.3176 F70
G1 X147.0746 Y149.9778 Z45.7061 E959.3218 F70
G1 X151.0746 Y149.9778 Z45.7662 E963.3222 F70
G1 X155.0746 Y149.9778 Z45.7011 E967.3228 F70
G1 X159.0746 Y149.9778 Z45.5142 E971.3271 F70
G1 X163.0746 Y149.9778 Z45.2029 E975.3392 F70
G1 X167.0746 Y149.9778 Z44.7640 E979.3632 F70
G1 X171.0746 Y149.9778 Z44.2211 E983.3999 F70
G1 X175.0746 Y149.9778 Z43.5880 E987.4497 F70
G1 X175.0746 Y145.9778 Z43.4906 E991.4509 F70
G1 X171.0746 Y145.9778 Z44.1078 E995.4982 F70
G1 X167.0746 Y145.9778 Z44.6375 E999.5331 F70
G1 X163.0746 Y145.9778 Z45.0660 E1003.5560 F70
G1 X159.0746 Y145.9778 Z45.3701 E1007.5676 F70
G1 X155.0746 Y145.9778 Z45.5527 E1011.5717 F70
G1 X151.0746 Y145.9778 Z45.6165 E1015.5722 F70
G1 X147.0746 Y145.9778 Z45.5577 E1019.5727 F70
G1 X143.0746 Y145.9778 Z45.3792 E1023.5767 F70
G1 X139.0746 Y145.9778 Z45.0795 E1027.5879 F70
G1 X135.0746 Y145.9778 Z44.6555 E1031.6103 F70
G1 X131.0746 Y145.9778 Z44.1292 E1035.6448 F70
G1 X127.0746 Y145.9778 Z43.5149 E1039.6916 F70
G1 X127.0746 Y141.9778 Z43.3036 E1043.6972 F70
G1 X131.0746 Y141.9778 Z43.8905 E1047.7400 F70
G1 X135.0746 Y141.9778 Z44.3928 E1051.7715 F70
G1 X139.0746 Y141.9778 Z44.7969 E1055.7918 F70
G1 X143.0746 Y141.9778 Z45.0822 E1059.8020 F70
G1 X147.0746 Y141.9778 Z45.2521 E1063.8056 F70
G1 X151.0746 Y141.9778 Z45.3077 E1067.8060 F70
G1 X155.0746 Y141.9778 Z45.2473 E1071.8064 F70
G1 X159.0746 Y141.9778 Z45.0736 E1075.8102 F70
G1 X163.0746 Y141.9778 Z44.7840 E1079.8207 F70
G1 X167.0746 Y141.9778 Z44.3756 E1083.8415 F70
G1 X171.0746 Y141.9778 Z43.8700 E1087.8733 F70
G1 X175.0746 Y141.9778 Z43.2800 E1091.9166 F70
G1 X175.0746 Y137.9778 Z42.9436 E1095.9307 F70
G1 X171.0746 Y137.9778 Z43.4954 E1099.9686 F70
G1 X167.0746 Y137.9778 Z43.9687 E1103.9965 F70
G1 X163.0746 Y137.9778 Z44.3510 E1108.0147 F70
G1 X159.0746 Y137.9778 Z44.6221 E1112.0239 F70
G1 X155.0746 Y137.9778 Z44.7849 E1116.0272 F70
G1 X151.0746 Y137.9778 Z44.8418 E1120.0276 F70
G1 X147.0746 Y137.9778 Z44.7893 E1124.0279 F70
G1 X143.0746 Y137.9778 Z44.6302 E1128.0311 F70
G1 X139.0746 Y137.9778 Z44.3630 E1132.0400 F70
G1 X135.0746 Y137.9778 Z43.9847 E1136.0579 F70
G1 X131.0746 Y137.9778 Z43.5145 E1140.0854 F70
G1 X127.0746 Y137.9778 Z42.9656 E1144.1229 F70
G1 X127.0746 Y137.9778 Z47.9656 E1145.1229 F200
G1 X127.0746 Y141.9778 Z48.3036 E1149.1371 F70
G1 X127.0746 Y145.9778 Z48.5149 E1153.1427 F70
G1 X127.0746 Y149.9778 Z48.6133 E1157.1439 F70
G1 X127.0746 Y153.9778 Z48.5906 E1161.1440 F70
G1 X127.0746 Y157.9778 Z48.4375 E1165.1469 F70
G1 X127.0746 Y161.9778 Z48.1509 E1169.1572 F70
G1 X127.0746 Y165.9778 Z47.7116 E1173.1812 F70
G1 X127.0746 Y169.9778 Z47.1341 E1177.2227 F70
G1 X127.0746 Y173.9778 Z46.4050 E1181.2886 F70
G1 X127.0746 Y177.9778 Z45.5401 E1185.3811 F70
G1 X131.0746 Y177.9778 Z45.9357 E1189.4006 F70
G1 X131.0746 Y173.9778 Z46.8480 E1193.5033 F70
G1 X131.0746 Y169.9778 Z47.6356 E1197.5801 F70
G1 X131.0746 Y165.9778 Z48.2551 E1201.6278 F70
G1 X131.0746 Y161.9778 Z48.7371 E1205.6567 F70
G1 X131.0746 Y157.9778 Z49.0503 E1209.6690 F70
G1 X131.0746 Y153.9778 Z49.2199 E1213.6726 F70
G1 X131.0746 Y149.9778 Z49.2430 E1217.6726 F70
G1 X131.0746 Y145.9778 Z49.1292 E1221.6742 F70
G1 X131.0746 Y141.9778 Z48.8905 E1225.6814 F70
G1 X131.0746 Y137.9778 Z48.5145 E1229.6990 F70
G1 X135.0746 Y137.9778 Z48.9847 E1233.7265 F70
G1 X135.0746 Y141.9778 Z49.3928 E1237.7473 F70
G1 X135.0746 Y145.9778 Z49.6555 E1241.7559 F70
G1 X135.0746 Y149.9778 Z49.7825 E1245.7579 F70
G1 X135.0746 Y153.9778 Z49.7597 E1249.7580 F70
G1 X135.0746 Y157.9778 Z49.5777 E1253.7621 F70
G1 X135.0746 Y161.9778 Z49.2399 E1257.7764 F70
G1 X135.0746 Y165.9778 Z48.7252 E1261.8094 F70
G1 X135.0746 Y169.9778 Z48.0642 E1265.8636 F70
G1 X135.0746 Y173.9778 Z47.2331 E1269.9490 F70
G1 X135.0746 Y177.9778 Z46.2733 E1274.0626 F70
G1 X139.0746 Y177.9778 Z46.5439 E1278.0717 F70
G1 X139.0746 Y173.9778 Z47.5435 E1282.1947 F70
G1 X139.0746 Y169.9778 Z48.4083 E1286.2871 F70
G1 X139.0746 Y165.9778 Z49.1043 E1290.3472 F70
